!!!!SEGMENT: pl-cz--iii-446--003_maader-ludwik--requiem-in-es-domine-jesu-christe.krn
!!!cenid: 17xx:972
!!!COM: Maader, Ludwik
!!!COM-rismID:
!!!CDT: <1794->1798
!!!CNT:
!!!OPR: Requiem in Es
!!!OTL: Domine Jesu Christe
!!!OMV: 003
!!!PDT:
!!!AGN: Sacred; Requiem
!!!SMS-siglum: PL-CZ
!!!SMS-shelfmark: III-446
!!!SMS-shelfwork: 001-003 M
!!!SMS-variant:
!!!SMS-altvar:
!!!NIFC-rismSourceID: 300000767
!!!NIFC-islandoraID: pl-cz:38340
!!!URL-pdf-islandora: https://repozytorium.nifc.pl/islandora/object/pl-cz%3A38340/datastream/PDF/view
!!!URL-scan:
!!!ONB-nifc: UWAGA: części Requiem: Requiem, Dies irae, Domine Jesu Christe, Sanctus, Benedictus
!!!AIN: 1 alto 1 bass 4 empty 1 organ 1 tenor 2 violn 1 vox
!!!key: E-
**kern	**fba	**dynam	**kern	**dynam	**kern	**dynam	**kern	**text	**kern	**text	**kern	**text	**kern	**text	**kern	**kern	**kern	**kern
*part11	*part11	*part11	*part10	*part10	*part9	*part9	*part8	*part8	*part7	*part7	*part6	*part6	*part5	*part5	*part4	*part3	*part2	*part1
*staff11	*	*	*staff10	*	*staff9	*	*staff8	*staff8	*staff7	*staff7	*staff6	*staff6	*staff5	*staff5	*staff4	*staff3	*staff2	*staff1
*Iorgan	*	*	*Ivioln	*	*Ivioln	*	*Ibass	*	*Itenor	*	*Ialto	*	*Ivox	*	*Iempty	*Iempty	*Iempty	*Iempty
*I"Organo	*	*	*I"Violino Secundo.	*	*I"Violino Primo.	*	*I"Basso.	*	*I"Tenore	*	*I"Alto	*	*I"Canto	*	*I"Cornu Secundo in Dis.	*I"Cornu Primo in E♭	*I"Clarinetto Secondo Obligato	*I"Clarinetto Primo Obligato
*I'Org.	*	*	*I'Vn II	*	*I'Vn I	*	*I'B.	*	*I'T.	*	*I'A.	*	*I'C.	*	*I'C. 2 in Dis	*I'C. 1 in E♭	*I'Cl. 2 in E♭	*I'Cl. 1 in E♭
*ICklav	*	*	*ICstr	*	*ICstr	*	*ICvox	*	*ICvox	*	*ICvox	*	*ICvox	*	*ICbras	*ICbras	*ICww	*ICww
*IG	*	*	*	*	*	*	*IGcoro	*	*IGcoro	*	*IGcoro	*	*IGcoro	*	*	*	*	*
*clefF4	*	*	*clefG2	*	*clefG2	*	*clefF4	*	*clefC4	*	*clefC3	*	*clefC1	*	*clefG2	*clefG2	*clefG2	*clefG2
*	*	*	*	*	*	*	*	*	*	*	*	*	*	*	*ITrd-2c-3	*ITrd-2c-3	*ITrd1c2	*ITrd1c2
*k[b-e-a-]	*	*	*k[b-e-a-]	*	*k[b-e-a-]	*	*k[b-e-a-]	*	*k[b-e-a-]	*	*k[b-e-a-]	*	*k[b-e-a-]	*	*k[b-e-a-]	*k[b-e-a-]	*k[b-e-a-]	*k[b-e-a-]
*E-:	*	*	*E-:	*	*E-:	*	*E-:	*	*E-:	*	*E-:	*	*E-:	*	*	*	*E-:	*E-:
*M4/4	*	*	*M4/4	*	*M4/4	*	*M4/4	*	*M4/4	*	*M4/4	*	*M4/4	*	*M4/4	*M4/4	*M4/4	*M4/4
*met(c)	*	*	*met(c)	*	*met(c)	*	*met(c)	*	*met(c)	*	*met(c)	*	*met(c)	*	*met(c)	*met(c)	*met(c)	*met(c)
=1	=1	=1	=1	=1	=1	=1	=1	=1	=1	=1	=1	=1	=1	=1	=1	=1	=1	=1
!!LO:TX:t=P:problem:caudy wszystkich nut po prawej: global
!	!	!	!	!	!	!	!	!	!	!	!	!	!LO:TX:B:t=Adagio	!	!	!	!	!LO:TX:t=P:problem=brak notatki o zmianie instrumentu, a tu już potrzebny klarnet B
!LO:TX:t=P::problem=kolejność bemoli inna&colon; es, as górne, b	!	!	!	!	!	!	!	!	!	!	!	!	!	!	!	!	!LO:TX:a:B:t=Adagio	!LO:TX:t=P:problem=bemol przy kluczy dopisany ołówkiem
!LO:TX:B:t=Adagio	!	!	!LO:TX:a:B:t=adagio	!	!LO:TX:a:B:t=Adagio	!	!LO:TX:a:B:t=adagio	!	!LO:TX:B:t=Adagio	!	!LO:TX:B:t=adagio	!	!	!	!LO:TX:B:t=Adagio	!LO:TX:B:t=Adagio	!LO:TX:t=P:problem=brak bemola przy kluczu	!LO:TX:a:B:t=Adagio
8E-|\	.	.	8g/L	.	(16ee-\LL	.	1r	.	1r	.	1r	.	1r	.	1r	1r	1r	1r
!	!	!	!	!	!	!LO:DY:b:t=for.	!	!	!	!	!	!	!	!	!	!	!	!
.	.	.	.	.	16b-\)	f	.	.	.	.	.	.	.	.	.	.	.	.
8r	.	.	16g/L	.	16b-|\	.	.	.	.	.	.	.	.	.	.	.	.	.
.	.	.	16g/JJ	.	16b-|\JJ	.	.	.	.	.	.	.	.	.	.	.	.	.
8E-|\	.	.	(16g/LL	.	(16b-/LL	.	.	.	.	.	.	.	.	.	.	.	.	.
.	.	.	16e-/)	.	16g/)	.	.	.	.	.	.	.	.	.	.	.	.	.
8r	.	.	16e-'/	.	16g|/	.	.	.	.	.	.	.	.	.	.	.	.	.
.	.	.	16e-'/JJ	.	16g|/JJ	.	.	.	.	.	.	.	.	.	.	.	.	.
8E-|\	.	.	(16B-/LL	.	(16g/LL	.	.	.	.	.	.	.	.	.	.	.	.	.
.	.	.	16G/)	.	16e-/)	.	.	.	.	.	.	.	.	.	.	.	.	.
8r	.	.	16G'/	.	16e-|/	.	.	.	.	.	.	.	.	.	.	.	.	.
.	.	.	16G'/JJ	.	16e-|/JJ	.	.	.	.	.	.	.	.	.	.	.	.	.
8E-|\	.	.	8G/	.	4e-|/	.	.	.	.	.	.	.	.	.	.	.	.	.
8r	.	.	8r	.	.	.	.	.	.	.	.	.	.	.	.	.	.	.
=2	=2	=2	=2	=2	=2	=2	=2	=2	=2	=2	=2	=2	=2	=2	=2	=2	=2	=2
!	!	!	!	!	!	!	!	!	!	!	!	!	!	!	!	!	!	!LO:TX:t=P::problem=caudy drobnych nut nieregularnie&colon; prawa, lewa, środek
!	!	!LO:DY:b:t=po	!	!LO:DY:b:t=po&colon;	!	!LO:DY:b:t=po&colon;	!	!	!	!	!	!	!	!	!LO:TX:a:i:t=Solo.	!LO:TX:a:i:t=Solo	!	!LO:TX:a:i:t=Solo.
8BB-/L	.	p	8B-/L	p	8B-/L	p	1r	.	1r	.	1r	.	1r	.	8b-/L	8ff\L	8dd\L	8ff\L
!	!	!	!	!	!	!	!	!	!	!	!	!	!	!	!	!	!LO:TX:a:i:t=Solo	!
8BB-/	.	.	8B-/	.	8B-/	.	.	.	.	.	.	.	.	.	16.b-/L	16.ff\L	16.dd\L	16.ff\L
.	.	.	.	.	.	.	.	.	.	.	.	.	.	.	32b-/JJk	32ff\JJk	32dd\JJk	32ff\JJk
!	!	!	!	!	!	!	!	!	!	!	!	!	!	!	!	!	!LO:TX:t=P:problem=mixed beam	!
8BB-/	.	.	8B-/	.	8B-/	.	.	.	.	.	.	.	.	.	8b-/L	8ff\L	8dd\L	8ff\L
8E-/J	.	.	8e-/J	.	8e-/J	.	.	.	.	.	.	.	.	.	16ee-/L	16gg\L	16ee-\L	16gg\L
.	.	.	.	.	.	.	.	.	.	.	.	.	.	.	16g/JJ	16ee-\JJ	16g/JJ	16ee-\JJ
*tremolo	*	*	*	*	*	*	*	*	*	*	*	*	*	*	*	*	*	*
*	*	*	*tremolo	*	*	*	*	*	*	*	*	*	*	*	*	*	*	*
*	*	*	*	*	*tremolo	*	*	*	*	*	*	*	*	*	*	*	*	*
8BB-/L	.	.	8B-/L	.	8B-/L	.	.	.	.	.	.	.	.	.	8b-/L	8ff\L	8dd\L	8ff\L
8BB-/	.	.	8B-/	.	8B-/	.	.	.	.	.	.	.	.	.	16.b-/L	16.ff\L	16.dd\L	16.ff\L
.	.	.	.	.	.	.	.	.	.	.	.	.	.	.	32b-/JJk	32ff\JJk	32dd\JJk	32ff\JJk
!	!	!	!	!	!	!	!	!	!	!	!	!	!	!	!LO:TX:t=P:problem=mixed beam	!	!	!
8BB-/	.	.	8B-/	.	8B-/	.	.	.	.	.	.	.	.	.	8.b-/L	8.ff\L	8.dd\L	8.ff\L
8BB-/J	.	.	8B-/J	.	8B-/J	.	.	.	.	.	.	.	.	.	.	.	.	.
.	.	.	.	.	.	.	.	.	.	.	.	.	.	.	16ff\Jk	16aa-\Jk	16ff\Jk	16aa-\Jk
=3	=3	=3	=3	=3	=3	=3	=3	=3	=3	=3	=3	=3	=3	=3	=3	=3	=3	=3
8E-\	.	.	8e-/	.	8e-/	.	1r	.	1r	.	1r	.	1r	.	16ee-\LL	16gg\LL	16ee-\LL	16gg\LL
.	.	.	.	.	.	.	.	.	.	.	.	.	.	.	16gg\	16bb-\	16gg\	16bb-\
8r	.	.	8r	.	8r	.	.	.	.	.	.	.	.	.	16gg\	16bb-\	16gg\	16bb-\
.	.	.	.	.	.	.	.	.	.	.	.	.	.	.	16gg\JJ	16bb-\JJ	16gg\JJ	16bb-\JJ
!	!	!	!	!	!	!	!	!	!	!	!	!	!	!	!	!	!LO:TX:t=P:problem=mixed beam	!
8BB-\L	.	.	8B-/L	.	8B-/L	.	.	.	.	.	.	.	.	.	16ff\LL	16aa-\LL	16ff\LL	16aa-\LL
.	.	.	.	.	.	.	.	.	.	.	.	.	.	.	16b-\	16ff\	16dd\	16ff\
8E-\J	.	.	8e-/J	.	8e-/J	.	.	.	.	.	.	.	.	.	16ee-\	16gg\	16ee-\	16gg\
.	.	.	.	.	.	.	.	.	.	.	.	.	.	.	16g\JJ	16ee-\JJ	16g/JJ	16ee-\JJ
!LO:TX:t=P:problem=mixed beam	!	!	!LO:TX:t=P:problem=mixed beam	!	!LO:TX:t=P:problem=mixed beam	!	!	!	!	!	!	!	!	!	!	!	!	!
8B-\L	.	.	8b-\L	.	8b-\L	.	.	.	.	.	.	.	.	.	8b-/L	8ff\L	8dd\L	8ff\L
8BB-/	.	.	16B-/L	.	16B-/L	.	.	.	.	.	.	.	.	.	16.b-/L	16.ff\L	16.dd\L	16.ff\L
.	.	.	16B-/JJ	.	16B-/JJ	.	.	.	.	.	.	.	.	.	.	.	.	.
.	.	.	.	.	.	.	.	.	.	.	.	.	.	.	32b-/JJk	32ff\JJk	32dd\JJk	32ff\JJk
*	*	*	*Xtremolo	*	*Xtremolo	*	*	*	*	*	*	*	*	*	*	*	*	*
8BB-/	.	.	8B-/L	.	8B-/L	.	.	.	.	.	.	.	.	.	4b-/	4ff\	4dd\	4ff\
8BB-/J	.	.	8B-/J	.	8B-/J	.	.	.	.	.	.	.	.	.	.	.	.	.
=4	=4	=4	=4	=4	=4	=4	=4	=4	=4	=4	=4	=4	=4	=4	=4	=4	=4	=4
!	!	!	!	!	!	!	!	!	!	!	!	!	!	!	!LO:TX:t=P:problem=mixed beam	!	!	!
8BB-/	.	.	8B-/	.	8B-/	.	1r	.	1r	.	1r	.	1r	.	8b-/L	8ff\L	8dd\L	8ff\L
8r	.	.	8r	.	8r	.	.	.	.	.	.	.	.	.	16ff\L	16aa-\L	16ff\L	16aa-\L
.	.	.	.	.	.	.	.	.	.	.	.	.	.	.	16b-/JJ	16ff\JJ	16dd\JJ	16ff\JJ
8E-\	.	.	8e-/	.	8e-/	.	.	.	.	.	.	.	.	.	8ee-\L	8gg\L	8ee-\L	8gg\L
8r	.	.	8r	.	8r	.	.	.	.	.	.	.	.	.	16gg\L	16bb-\L	16gg\L	16bb-\L
.	.	.	.	.	.	.	.	.	.	.	.	.	.	.	16ee-\JJ	16gg\JJ	16ee-\JJ	16gg\JJ
8BB-/	.	.	8B-/	.	8B-/	.	.	.	.	.	.	.	.	.	8b-/L	8ff\L	8dd\L	8ff\L
!!LO:TX:t=P:problem:kropki zamiast cyfr:global
8r	.	.	8r	.	8r	.	.	.	.	.	.	.	.	.	(24ff/L	(24aa-\L	(24ff\L	(24aa-\L
.	.	.	.	.	.	.	.	.	.	.	.	.	.	.	24ee-/	24gg\	24ee-\	24gg\
.	.	.	.	.	.	.	.	.	.	.	.	.	.	.	24b-/JJ)	24ff\JJ)	24dd\JJ)	24ff\JJ)
8E-\	.	.	8e-/	.	8e-/	.	.	.	.	.	.	.	.	.	8ee-\L	8gg\L	8ee-\L	8gg\L
8r	.	.	8r	.	8r	.	.	.	.	.	.	.	.	.	24gg\L	(24bb-\L	(24gg\L	(24bb-\L
!	!	!	!	!	!	!	!	!	!	!	!	!	!	!	!LO:TX:t=P:problem=koniec taktu niewidoczny, urwana karta	!	!	!
.	.	.	.	.	.	.	.	.	.	.	.	.	.	.	24ff\yy	24aa-\	24ff\	24aa-\
.	.	.	.	.	.	.	.	.	.	.	.	.	.	.	24ee-\JJyy	24gg\JJ)	24ee-\JJ)	24gg\JJ)
!	!	!	!	!	!	!	!	!	!	!	!	!	!	!	!LO:LB:g=original	!	!LO:LB:g=original	!LO:LB:g=original
=5	=5	=5	=5	=5	=5	=5	=5	=5	=5	=5	=5	=5	=5	=5	=5	=5	=5	=5
4A-\	.	.	4a-\	.	4a-\	.	1r	.	1r	.	1r	.	1r	.	8aa-\L	8ccc\L	8aa-\L	8ccc\L
.	.	.	.	.	.	.	.	.	.	.	.	.	.	.	(24aa-\L	(24ccc\L	24aa-\L	(24ccc\L
.	.	.	.	.	.	.	.	.	.	.	.	.	.	.	24gg\	24bb-\	24gg\	24bb-\
.	.	.	.	.	.	.	.	.	.	.	.	.	.	.	24ff\JJ)	24aa-\JJ)	24ff\JJ	24aa-\JJ)
!LO:TX:t=P:problem=mixed beam	!	!	!LO:TX:t=P:problem=mixed beam	!	!LO:TX:t=P:problem=mixed beam	!	!	!	!	!	!	!	!	!	!	!	!	!
8B-\L	.	.	8b-\L	.	8b-\L	.	.	.	.	.	.	.	.	.	8ee-\L	8gg\L	8ee-\L	8gg\L
8BB-/J	.	.	8B-/J	.	8B-/J	.	.	.	.	.	.	.	.	.	8b-\J	8ff\J	8a-\J	8ff\J
!	!	!	!LO:LB:g=original	!	!	!	!	!	!	!	!	!	!	!	!	!LO:LB:g=original	!	!
*Xtremolo	*	*	*	*	*	*	*	*	*	*	*	*	*	*	*	*	*	*
8E-\L	.	.	8e-/L	.	8e-/L	.	.	.	.	.	.	.	.	.	8g/L	8ee-\L	8g\L	8ee-\L
8E-\	.	.	8e-/	.	8e-/	.	.	.	.	.	.	.	.	.	16.g/L	16.ee-\L	16.g\L	16.ee-\L
.	.	.	.	.	.	.	.	.	.	.	.	.	.	.	32g/JJk	32ee-\JJk	32g\JJk	32ee-\JJk
8E-\J	.	.	8e-/J	.	8e-/J	.	.	.	.	.	.	.	.	.	8g/	8ee-\	8g\	8ee-\
8r	.	.	8r	.	8r	.	.	.	.	.	.	.	.	.	8r	8r	8r	8r
!LO:LB:g=original	!	!	!	!	!	!	!	!	!	!	!	!	!	!	!	!	!	!
=6	=6	=6	=6	=6	=6	=6	=6	=6	=6	=6	=6	=6	=6	=6	=6	=6	=6	=6
*tremolo	*	*	*	*	*	*	*	*	*	*	*	*	*	*	*2\right	*2\right	*2\right	*2\right
!	!	!	!LO:TX:a:i:t=T&colon;	!	!	!	!LO:TX:t=P::problem=caudy nut nieregularnie&colon; prawa, lewa, środek	!	!LO:TX:t=P::problem=caudy nut nieregularnie&colon; prawa, lewa, środek	!	!LO:TX:t=P::problem=caudy wszystkich nut na środku&colon; global	!	!	!	!	!	!	!LO:TX:a:i:t=Tutti.
!	!	!LO:DY:b:t=for	!	!LO:DY:b:t=for	!	!	!	!	!	!	!	!	!	!	!LO:TX:a:i:t=Tutti	!LO:TX:a:i:t=Tutti	!LO:TX:t=Tutti	!
8D\L	6 5	f	(16d/LL	f	8.ff\L	.	4D\	Do-	4B-\	Do-	4a-\	Do-	4ff\	Do-	2b-\	2ff\	2a-\	2ff\
.	.	.	16b-/	.	.	.	.	.	.	.	.	.	.	.	.	.	.	.
8D\	.	.	16f/	.	.	.	.	.	.	.	.	.	.	.	.	.	.	.
.	.	.	16b-/JJ)	.	16dd\Jk	.	.	.	.	.	.	.	.	.	.	.	.	.
8D\	.	.	(16d/LL	.	(16b-\LL	.	8D\	-mi-	8B-\	-mi-	8a-\	-mi-	8ff\	-mi-	.	.	.	.
.	.	.	16b-/	.	16dd\	.	.	.	.	.	.	.	.	.	.	.	.	.
8D\J	.	.	16f/	.	16ff\	.	8D\	-ne	8B-\	-ne	8a-\	-ne	8ff\	-ne	.	.	.	.
.	.	.	16b-/JJ)	.	16aa-\JJ)	.	.	.	.	.	.	.	.	.	.	.	.	.
!	!	!	!	!	!LO:LB:g=original	!	!	!	!	!	!	!	!	!	!	!	!	!
*Xtremolo	*	*	*	*	*	*	*	*	*	*	*	*	*	*	*	*	*	*
8E-\L	x 6	.	(16e-/LL	.	16aa-\LL	.	4E-\	Je-	4B-\	Je-	4g\	Je-	4ee-\	Je-	2ee-\	2gg\	2g\	2ee-\
.	.	.	16b-/	.	16gg\	.	.	.	.	.	.	.	.	.	.	.	.	.
8E-\	.	.	16g/	.	16bb-\	.	.	.	.	.	.	.	.	.	.	.	.	.
.	.	.	16b-/JJ)	.	16gg\JJ	.	.	.	.	.	.	.	.	.	.	.	.	.
8G\	.	.	(16e-/LL	.	16ff\LL	.	4E-\	-su	4B-\	-su	4g\	-su	4ee-\	-su	.	.	.	.
.	.	.	16b-/	.	16ee-\	.	.	.	.	.	.	.	.	.	.	.	.	.
8G\J	.	.	16g/	.	16dd\	.	.	.	.	.	.	.	.	.	.	.	.	.
.	.	.	16b-/JJ)	.	16ee-\JJ	.	.	.	.	.	.	.	.	.	.	.	.	.
=7	=7	=7	=7	=7	=7	=7	=7	=7	=7	=7	=7	=7	=7	=7	=7	=7	=7	=7
*tremolo	*	*	*	*	*	*	*	*	*	*	*	*	*	*	*	*	*	*
8D\L	6 5	.	(16d/LL	.	16ff\LL	.	4D\	Chri-	4B-\	X(ri)-	4a-\	X(ri)-	4ff\	X(ri)-	2b-/	2ff\	2a-\	2ff\
.	.	.	16b-/	.	16een\	.	.	.	.	.	.	.	.	.	.	.	.	.
8D\	.	.	16f/	.	16ff\	.	.	.	.	.	.	.	.	.	.	.	.	.
.	.	.	16b-/JJ)	.	16dd\JJ	.	.	.	.	.	.	.	.	.	.	.	.	.
8D\	.	.	(16d/LL	.	16b-\LL	.	8D\	-ste	8B-\	-ste	8a-\	-ste	8ff\	-ste	.	.	.	.
.	.	.	16b-/	.	16dd\	.	.	.	.	.	.	.	.	.	.	.	.	.
8D\J	.	.	16f/	.	16ff\	.	8D\	Rex	8B-\	Rex	8a-\	Rex	8ff\	Rex	.	.	.	.
.	.	.	16b-/JJ)	.	16aa-\JJ	.	.	.	.	.	.	.	.	.	.	.	.	.
*Xtremolo	*	*	*	*	*	*	*	*	*	*	*	*	*	*	*	*	*	*
8E-\L	.	.	(16e-/LL	.	16aa-\LL	.	8.E-\	glo-	8.B-\	glo-	8.g\	glo-	8.ee-\	glo-	4ee-\	4gg\	4g\	4ee-\
.	.	.	16b-/	.	16gg\	.	.	.	.	.	.	.	.	.	.	.	.	.
8E-\	.	.	16g/	.	16bb-\	.	.	.	.	.	.	.	.	.	.	.	.	.
.	.	.	16b-/JJ)	.	16gg\JJ	.	16E-\	-ri-	16B-\	-ri-	16g\	-ri-	16ee-\	-ri-	.	.	.	.
8G\	.	.	(16e-/LL	.	8ee\	.	4E-\	-a	4B-\	-ae	4g\	-ae	4ee-\	-a	4r	4r	4r	4r
.	.	.	16b-/	.	.	.	.	.	.	.	.	.	.	.	.	.	.	.
8E-\J	.	.	16g/	.	8r	.	.	.	.	.	.	.	.	.	.	.	.	.
.	.	.	16b-/JJ)	.	.	.	.	.	.	.	.	.	.	.	.	.	.	.
=8	=8	=8	=8	=8	=8	=8	=8	=8	=8	=8	=8	=8	=8	=8	=8	=8	=8	=8
*tremolo	*	*	*	*	*	*	*	*	*	*	*	*	*	*	*	*	*	*
!	!	!	!	!	!	!	!	!	!	!	!LO:TX:t=P:problem=caudy nut 1-5 po prawej	!	!	!	!	!	!	!
8BBn/L	6 5	.	(16Bn/LL	.	8.dd\L	.	8BBn/	li-	8G/	li-	8f\	li-	8dd\	li-	2g/	2gg\	2f/	2dd\
.	.	.	16g/	.	.	.	.	.	.	.	.	.	.	.	.	.	.	.
8BBn/	.	.	16d/	.	.	.	16BB/	-be-	16G/	-be-	16f\	-be-	16dd\	-be-	.	.	.	.
.	.	.	16g/JJ)	.	16bn\Jk	.	16BB/	-ra	16G/	-ra	16f\	-ra	16dd\	-ra	.	.	.	.
8BBn/	.	.	(16B/LL	.	16g\LL	.	16BB/	a-	16G/	a-	16f\	a-	16dd\	a-	.	.	.	.
.	.	.	16g/	.	16b\	.	16BB/	-ni-	16G/	-ni-	16f\	-ni-	16dd\	-ni-	.	.	.	.
8BBn/J	.	.	16d/	.	16dd\	.	8BB/	-mas	8G/	-mas	8f\	-mas	8dd\	-ma	.	.	.	.
.	.	.	16g/JJ)	.	16ff\JJ	.	.	.	.	.	.	.	.	.	.	.	.	.
*Xtremolo	*	*	*	*	*	*	*	*	*	*	*	*	*	*	*	*	*	*
!	!	!	!	!	!	!	!	!	!LO:LB:g=original	!	!LO:LB:g=original	!	!LO:LB:g=original	!	!	!	!	!
8C/L	.	.	(16c/LL	.	16ff\LL	.	8.C/	om-	8.G/	om-	8.e-\	om-	8.cc\	om-	2g/	2gg\	2e-/	2cc\
.	.	.	16g/	.	16ee-\	.	.	.	.	.	.	.	.	.	.	.	.	.
8C/	.	.	16e-/	.	16gg\	.	.	.	.	.	.	.	.	.	.	.	.	.
.	.	.	16g/JJ)	.	16ee-\JJ	.	16C/	-ni-	16G/	-ni-	16e-\	-ni-	16cc\	-ni-	.	.	.	.
8E-/	.	.	(16c/LL	.	16dd\LL	.	8C/	-um	8G/	-um	8e-\	-um	8cc\	-um	.	.	.	.
.	.	.	16g/	.	16cc\	.	.	.	.	.	.	.	.	.	.	.	.	.
8C/J	.	.	16e-/	.	16b\	.	8C/	fi-	8G/	fi-	8e-\	fi-	8cc\	fi-	.	.	.	.
.	.	.	16g/JJ)	.	16cc\JJ	.	.	.	.	.	.	.	.	.	.	.	.	.
!	!	!	!	!	!	!	!LO:LB:g=original	!	!	!	!	!	!	!	!	!	!	!
=9	=9	=9	=9	=9	=9	=9	=9	=9	=9	=9	=9	=9	=9	=9	=9	=9	=9	=9
*tremolo	*	*	*	*	*	*	*	*	*	*	*	*	*	*	*	*	*	*
8BBn/L	.	.	(16Bn/LL	.	16dd\LL	.	8BBn/	-de-	8G/	-de-	8f\	-de-	8dd\	-de-	2g/	2gg\	2f/	2dd\
.	.	.	16g/	.	16cc#X\	.	.	.	.	.	.	.	.	.	.	.	.	.
8BBn/	.	.	16d/	.	16dd\	.	16BB/	-li-	16G/	-li-	16f\	-li-	16dd\	-li-	.	.	.	.
.	.	.	16g/JJ)	.	16bn\JJ	.	16BB/	-um	16G/	-um	16f\	-um	16dd\	-um	.	.	.	.
8BBn/	.	.	(16B/LL	.	16g\LL	.	8BB/	de-	8G/	de-	8f\	de-	8dd\	de-	.	.	.	.
.	.	.	16g/	.	16b\	.	.	.	.	.	.	.	.	.	.	.	.	.
8BBn/J	.	.	16d/	.	16dd\	.	8BB/	-fun-	8G/	-fun-	8f\	-fun-	8dd\	-fun-	.	.	.	.
.	.	.	16g/JJ)	.	16ff\JJ	.	.	.	.	.	.	.	.	.	.	.	.	.
*Xtremolo	*	*	*	*	*	*	*	*	*	*	*	*	*	*	*	*	*	*
8C\L	.	.	(16c/LL	.	16ff\LL	.	4C/	-cto-	8G/	-cto-	8e-\	-cto-	8cc\	-cto-	4g/	4gg\	4e-/	4cc\
.	.	.	16g/	.	16ee-\	.	.	.	.	.	.	.	.	.	.	.	.	.
8C\	.	.	16e-/	.	16gg\	.	.	.	8G/	-rum	8e-\	-rum	8cc\	-rum	.	.	.	.
.	.	.	16g/JJ)	.	16ee-\JJ	.	.	.	.	.	.	.	.	.	.	.	.	.
8E-\	.	.	(16c/LL	.	8.ccn\L	.	4C/	-rum	4r	.	4r	.	4r	.	4r	4r	4r	4r
.	.	.	16g/	.	.	.	.	.	.	.	.	.	.	.	.	.	.	.
8En\J	.	.	16e-/	.	.	.	.	.	.	.	.	.	.	.	.	.	.	.
.	.	.	16g/JJ)	.	16bb-\Jk	.	.	.	.	.	.	.	.	.	.	.	.	.
!	!	!	!LO:LB:g=original	!	!	!	!	!	!	!	!	!	!	!	!	!	!	!
=10	=10	=10	=10	=10	=10	=10	=10	=10	=10	=10	=10	=10	=10	=10	=10	=10	=10	=10
8F\L	.	.	16cc/LL	.	16bb-\LL	.	1r	.	1r	.	1r	.	1r	.	1r	1r	1r	1r
.	.	.	16a-/	.	16aa-\	.	.	.	.	.	.	.	.	.	.	.	.	.
8F\	.	.	16cc/	.	16ccc\	.	.	.	.	.	.	.	.	.	.	.	.	.
.	.	.	16a-/JJ	.	16aa-\JJ	.	.	.	.	.	.	.	.	.	.	.	.	.
8A-\	6	.	8.f/L	.	8.ff\L	.	.	.	.	.	.	.	.	.	.	.	.	.
8A-\J	.	.	.	.	.	.	.	.	.	.	.	.	.	.	.	.	.	.
.	.	.	16e-/Jk	.	16ee-\Jk	.	.	.	.	.	.	.	.	.	.	.	.	.
!LO:TX:t=P:problem=mixed beam	!	!	!	!	!	!	!	!	!	!	!	!	!	!	!	!	!	!
8B-\L	.	.	16e-/LL	.	16ee-\LL	.	.	.	.	.	.	.	.	.	.	.	.	.
.	.	.	16d/	.	16dd\	.	.	.	.	.	.	.	.	.	.	.	.	.
8B-\	.	.	16f/	.	16ff\	.	.	.	.	.	.	.	.	.	.	.	.	.
.	.	.	16d/JJ	.	16dd\JJ	.	.	.	.	.	.	.	.	.	.	.	.	.
8D/	.	.	8.B-/L	.	8.b-\L	.	.	.	.	.	.	.	.	.	.	.	.	.
8D/J	.	.	.	.	.	.	.	.	.	.	.	.	.	.	.	.	.	.
.	.	.	16a-/Jk	.	16aa-\Jk	.	.	.	.	.	.	.	.	.	.	.	.	.
!	!	!	!	!	!LO:LB:g=original	!	!	!	!	!	!	!	!	!	!	!	!	!
=11	=11	=11	=11	=11	=11	=11	=11	=11	=11	=11	=11	=11	=11	=11	=11	=11	=11	=11
8E-\L	.	.	16a-/LL	.	16aa-\LL	.	1r	.	1r	.	1r	.	1r	.	1r	1r	1r	1r
.	.	.	16g/	.	16gg\	.	.	.	.	.	.	.	.	.	.	.	.	.
8E-\	.	.	16b-/	.	16bb-\	.	.	.	.	.	.	.	.	.	.	.	.	.
.	.	.	16g/JJ	.	16gg\JJ	.	.	.	.	.	.	.	.	.	.	.	.	.
8G\	6	.	8.e-/L	.	8.ee-\L	.	.	.	.	.	.	.	.	.	.	.	.	.
8G\J	.	.	.	.	.	.	.	.	.	.	.	.	.	.	.	.	.	.
.	.	.	16d/Jk	.	16dd\Jk	.	.	.	.	.	.	.	.	.	.	.	.	.
!LO:TX:t=P:problem=mixed beam	!	!	!	!	!	!	!	!	!	!	!	!	!	!	!	!	!	!
8A-X\L	.	.	16d/LL	.	16dd\LL	.	.	.	.	.	.	.	.	.	.	.	.	.
.	.	.	16c/	.	16cc\	.	.	.	.	.	.	.	.	.	.	.	.	.
8A-\	.	.	16e-/	.	16ee-\	.	.	.	.	.	.	.	.	.	.	.	.	.
.	.	.	16c/JJ	.	16cc\JJ	.	.	.	.	.	.	.	.	.	.	.	.	.
!	!	!	!	!	!LO:TX:t=P:problem=mixed beam	!	!	!	!	!	!	!	!	!	!	!	!	!
8C/	.	.	8.A-/L	.	8.a-/L	.	.	.	.	.	.	.	.	.	.	.	.	.
8C/J	.	.	.	.	.	.	.	.	.	.	.	.	.	.	.	.	.	.
.	.	.	16g/Jk	.	16gg\Jk	.	.	.	.	.	.	.	.	.	.	.	.	.
=12	=12	=12	=12	=12	=12	=12	=12	=12	=12	=12	=12	=12	=12	=12	=12	=12	=12	=12
8D\L	.	.	16g/LL	.	16gg\LL	.	2r	.	2r	.	2r	.	4r	.	2r	2r	2r	2r
.	.	.	16f/	.	16ff\	.	.	.	.	.	.	.	.	.	.	.	.	.
8D\	.	.	16a-/	.	16aa-\	.	.	.	.	.	.	.	.	.	.	.	.	.
.	.	.	16f/JJ	.	16ff\JJ	.	.	.	.	.	.	.	.	.	.	.	.	.
8F\	6	.	8.d/L	.	8.dd\L	.	.	.	.	.	.	.	4r	.	.	.	.	.
8F\J	.	.	.	.	.	.	.	.	.	.	.	.	.	.	.	.	.	.
.	.	.	16c/Jk	.	16cc\Jk	.	.	.	.	.	.	.	.	.	.	.	.	.
!LO:TX:t=P:problem=mixed beam	!	!	!	!	!	!	!	!	!	!	!	!	!	!	!	!	!	!
8G\L	.	.	16c/LL	.	16cc\LL	.	4r	.	4r	.	4r	.	4r	.	4r	4r	4r	4r
.	.	.	16Bn/	.	16bn\	.	.	.	.	.	.	.	.	.	.	.	.	.
8G\	.	.	16d/	.	16dd\	.	.	.	.	.	.	.	.	.	.	.	.	.
.	.	.	16B/JJ	.	16b\JJ	.	.	.	.	.	.	.	.	.	.	.	.	.
8BBn/	6	.	16G/LL	.	16g\LL	.	8r	.	8r	.	8r	.	8r	.	8r	8r	8r	8r
.	.	.	16g/	.	16dd|\	.	.	.	.	.	.	.	.	.	.	.	.	.
8BB/J	.	.	16g/	.	16dd|\	.	8BBn/	de	8d\	de	8g\	de	8dd\	de	8g/	8gg\	8g/	8dd\
.	.	.	16g/JJ	.	16dd|\JJ	.	.	.	.	.	.	.	.	.	.	.	.	.
!LO:LB:g=original	!	!	!	!	!	!	!	!	!	!	!	!	!	!	!	!	!	!
=13	=13	=13	=13	=13	=13	=13	=13	=13	=13	=13	=13	=13	=13	=13	=13	=13	=13	=13
*	*	*	*tremolo	*	*	*	*	*	*	*	*	*	*	*	*	*	*	*
8C/L	.	.	16g/LL	.	(16ee-\LL	.	8C/	poe-	8c\	poe-	8g\	poe-	8ee-\	poe-	4g/	4gg\	4g/	4ee-\
.	.	.	16g/	.	16gg\J	.	.	.	.	.	.	.	.	.	.	.	.	.
8E-/	.	.	16g/	.	8cc\J)	.	8C/	-nis	8c\	-nis	8g\	-nis	8ee-\	-nis	.	.	.	.
.	.	.	16g/	.	.	.	.	.	.	.	.	.	.	.	.	.	.	.
8BBn/	.	.	16g/	.	16r	.	8r	.	8r	.	8r	.	8r	.	8r	8r	8r	8r
.	.	.	16g/	.	16dd|\LL	.	.	.	.	.	.	.	.	.	.	.	.	.
8GG/J	.	.	16g/	.	16dd|\	.	8BBn/	in-	8d\	in-	8g\	in-	8dd\	in-	8g/	8gg\	8g/	8dd\
.	.	.	16g/JJ	.	16dd|\JJ	.	.	.	.	.	.	.	.	.	.	.	.	.
8C/L	.	.	16g/LL	.	(16ee-\LL	.	8C/	Fer-	8c\	Fer-	8g\	-Fer-	8ee-\	-Fe-	4g/	4gg\	4g/	4ee-\
.	.	.	16g/	.	16gg\J)	.	.	.	.	.	.	.	.	.	.	.	.	.
8E-/	.	.	16g/	.	8cc\J	.	8C/	-ni	8c\	-ni,	8g\	-ni,	8ee-\	-ris,	.	.	.	.
.	.	.	16g/	.	.	.	.	.	.	.	.	.	.	.	.	.	.	.
8BB/	.	.	16g/	.	16r	.	16r	.	16r	.	16r	.	16r	.	8r	8r	8r	8r
.	.	.	16g/	.	16dd|\LL	.	16BB/	et	16d\	et	16g\	et	16dd\	et	.	.	.	.
8GG/J	.	.	16g/	.	(16dd\	.	16BB/	de	16d\	de	16g\	de	16dd\	de	8g/	8gg\	8g/	8dd\
.	.	.	16g/JJ	.	16ff\JJ)	.	16BB/	pro-	16d\	pro-	16g\	pro-	16dd\	p(ro)-	.	.	.	.
!	!	!	!	!	!	!	!	!	!LO:LB:g=original	!	!LO:LB:g=original	!	!LO:LB:g=original	!	!	!	!	!
=14	=14	=14	=14	=14	=14	=14	=14	=14	=14	=14	=14	=14	=14	=14	=14	=14	=14	=14
!LO:TX:t=P:problem=mixed beam	!	!	!LO:TX:t=P:problem=mixed beam	!	!	!	!	!	!	!	!	!	!	!	!	!	!	!
8C\L	.	.	8g/L	.	(24ee-\LL	.	8C/	-fun-	8c\	-fun-	8g\	-fu-	8ee-\	-fun-	8g/	8gg\	8g/L	8ee-\L
.	.	.	.	.	24ccc\	.	.	.	.	.	.	.	.	.	.	.	.	.
.	.	.	.	.	24bb-\JJ)	.	.	.	.	.	.	.	.	.	.	.	.	.
8F\	.	.	(24ff\L	.	(24aa-\LL	.	8F\	-do	8A-/	-do	8f\	-ndo	8dd\	-do	8r	8r	8f/J	8dd\
.	.	.	24ee-\	.	24gg\	.	.	.	.	.	.	.	.	.	.	.	.	.
.	.	.	24dd\JJ)	.	24ff\JJ)	.	.	.	.	.	.	.	.	.	.	.	.	.
!	!	!	!	!	!	!	!LO:TX:t=P:problem=mixed beam	!	!	!	!	!	!	!	!	!	!	!
8G\	6 4	.	8cc\L	.	8ee-\L	.	8G\L	la-	4G/	la-	8e-\L	La-	8cc\L	La-	8g/L	8gg\L	8e-/L	8cc\
8GG/J	5 n	.	8bn\J	.	8dd\J	.	8GG/J	.	.	.	8d\J	.	8bn\J	.	8g/J	8gg\J	8d/J	8b-X\J
!LO:TX:t=P:problem=mixed beam	!	!	!	!	!	!	!	!	!	!	!	!	!	!	!	!	!	!
8.C/L	.	.	4cc\	.	4cc\	.	4C/	-cu.	4G/	-cu	4c\	-cu	4cc\	-cu	4g/	4gg\	4c/	4cc\
16c|\Jk	.	.	.	.	.	.	.	.	.	.	.	.	.	.	.	.	.	.
16B-X|\LL	.	.	4r	.	4r	.	4r	.	4r	.	4r	.	4r	.	4r	4r	4r	4r
16A-X|\	.	.	.	.	.	.	.	.	.	.	.	.	.	.	.	.	.	.
16G|\	.	.	.	.	.	.	.	.	.	.	.	.	.	.	.	.	.	.
16F|\JJ	.	.	.	.	.	.	.	.	.	.	.	.	.	.	.	.	.	.
!	!	!	!	!	!	!	!	!	!	!	!	!	!	!	!	!	!LO:LB:g=original	!LO:LB:g=original
=15	=15	=15	=15	=15	=15	=15	=15	=15	=15	=15	=15	=15	=15	=15	=15	=15	=15	=15
!	!	!	!	!	!	!	!	!	!	!	!	!	!	!	!	!	!LO:TX:a:t=1	!
8E-|\	.	.	8g/L	.	(16ee-\LL	.	1r	.	1r	.	1r	.	1r	.	1r	1r	1r	1r
.	.	.	.	.	16b-\)	.	.	.	.	.	.	.	.	.	.	.	.	.
8r	.	.	16g/L	.	16b-\	.	.	.	.	.	.	.	.	.	.	.	.	.
.	.	.	16g/JJ	.	16b-\JJ	.	.	.	.	.	.	.	.	.	.	.	.	.
8E-|\	.	.	(16g/LL	.	(16b-/LL	.	.	.	.	.	.	.	.	.	.	.	.	.
.	.	.	16e-/)	.	16g/)	.	.	.	.	.	.	.	.	.	.	.	.	.
8r	.	.	16e-'/	.	16g|/	.	.	.	.	.	.	.	.	.	.	.	.	.
.	.	.	16e-'/JJ	.	16g|/JJ	.	.	.	.	.	.	.	.	.	.	.	.	.
!	!	!	!LO:LB:g=original	!	!	!	!	!	!	!	!	!	!	!	!	!	!	!
8E-|\	.	.	(16B-/LL	.	(16g/LL	.	.	.	.	.	.	.	.	.	.	.	.	.
.	.	.	16G/)	.	16e-/)	.	.	.	.	.	.	.	.	.	.	.	.	.
8r	.	.	16G'/	.	16e-|/	.	.	.	.	.	.	.	.	.	.	.	.	.
.	.	.	16G'/JJ	.	16e-|/JJ	.	.	.	.	.	.	.	.	.	.	.	.	.
8E-|\	.	.	8G/	.	8e-/	.	.	.	.	.	.	.	.	.	.	.	.	.
8r	.	.	8r	.	8r	.	.	.	.	.	.	.	.	.	.	.	.	.
!	!	!	!	!	!LO:LB:g=original	!	!	!	!	!	!	!	!	!	!	!	!	!
=16	=16	=16	=16	=16	=16	=16	=16	=16	=16	=16	=16	=16	=16	=16	=16	=16	=16	=16
!	!	!	!	!LO:DY:b:t=po&colon;	!	!LO:DY:b:t=po&colon;	!	!	!	!	!	!	!	!	!	!	!	!LO:TX:a:i:t=Solo
8BB-/L	.	.	8B-/L	p	8B-/L	p	1r	.	1r	.	1r	.	1r	.	2r	8ff\L	8dd\L	8ff\L
8BB-/	.	.	8B-/	.	8B-/	.	.	.	.	.	.	.	.	.	.	16.ff\L	16.dd\L	16.ff\L
.	.	.	.	.	.	.	.	.	.	.	.	.	.	.	.	32ff\JJk	32dd\JJk	32ff\JJk
!	!	!	!	!	!	!	!	!	!	!	!	!	!	!	!	!	!LO:TX:t=P:problem=mixed beam	!
8BB-/	.	.	8B-/	.	8B-/	.	.	.	.	.	.	.	.	.	.	8ff\L	8dd\L	8ff\L
8E-/J	.	.	8e-/J	.	8e-/J	.	.	.	.	.	.	.	.	.	.	16gg\L	16ee-\L	16gg\L
.	.	.	.	.	.	.	.	.	.	.	.	.	.	.	.	16ee-\JJ	16g/JJ	16ee-\JJ
!	!	!	!	!	!	!	!	!	!	!	!	!	!	!	!LO:LB:g=original	!LO:LB:g=original	!	!
*tremolo	*	*	*	*	*tremolo	*	*	*	*	*	*	*	*	*	*	*	*	*
8BB-/L	.	.	8B-/L	.	8B-/L	.	.	.	.	.	.	.	.	.	8b-/L	8ff\L	8dd\L	8ff\L
8BB-/	.	.	8B-/	.	8B-/	.	.	.	.	.	.	.	.	.	16.b-/L	16.ff\L	16.dd\L	16.ff\L
.	.	.	.	.	.	.	.	.	.	.	.	.	.	.	32b-/JJk	32ff\JJk	32dd\JJk	32ff\JJk
!	!	!	!	!	!	!	!	!	!	!	!	!	!	!	!LO:TX:t=P:problem=mixed beam	!	!	!
8BB-/	.	.	8B-/	.	8B-/	.	.	.	.	.	.	.	.	.	8.b-/L	8.ff\L	8.dd\L	8.ff\L
8BB-/J	.	.	8B-/J	.	8B-/J	.	.	.	.	.	.	.	.	.	.	.	.	.
.	.	.	.	.	.	.	.	.	.	.	.	.	.	.	16ff\Jk	16aa-\Jk	16ff\Jk	16aa-\Jk
*	*	*	*	*	*Xtremolo	*	*	*	*	*	*	*	*	*	*	*	*	*
*	*	*	*Xtremolo	*	*	*	*	*	*	*	*	*	*	*	*	*	*	*
=17	=17	=17	=17	=17	=17	=17	=17	=17	=17	=17	=17	=17	=17	=17	=17	=17	=17	=17
8E-\	.	.	8e-/	.	8e-/	.	1r	.	1r	.	1r	.	1r	.	16ee-\LL	16gg\LL	16ee-\LL	16gg\LL
.	.	.	.	.	.	.	.	.	.	.	.	.	.	.	16gg\	16bb-\	16gg\	16bb-\
8r	.	.	8r	.	8r	.	.	.	.	.	.	.	.	.	16gg\	16bb-\	16gg\	16bb-\
.	.	.	.	.	.	.	.	.	.	.	.	.	.	.	16gg\JJ	16bb-\JJ	16gg\JJ	16bb-\JJ
!	!	!	!	!	!	!	!	!	!	!	!	!	!	!	!	!	!LO:TX:t=P:problem=mixed beam	!
8BB-\L	.	.	8B-/L	.	8B-/L	.	.	.	.	.	.	.	.	.	16ff\LL	16aa-\LL	16ff\LL	16aa-\LL
.	.	.	.	.	.	.	.	.	.	.	.	.	.	.	16b-\	16ff\	16dd\	16ff\
8E-\J	.	.	8e-/J	.	8e-/J	.	.	.	.	.	.	.	.	.	16ee-\	16gg\	16ee-\	16gg\
.	.	.	.	.	.	.	.	.	.	.	.	.	.	.	16g\JJ	16ee-\JJ	16g/JJ	16ee-\JJ
!LO:TX:t=P:problem=mixed beam	!	!	!LO:TX:t=P:problem=mixed beam	!	!LO:TX:t=P:problem=mixed beam	!	!	!	!	!	!	!	!	!	!	!	!	!
8B-\L	.	.	8b-\L	.	8b-\L	.	.	.	.	.	.	.	.	.	8b-/L	8ff\L	8dd\L	8ff\L
8BB-/	.	.	16B-/L	.	16B-/L	.	.	.	.	.	.	.	.	.	16.b-/L	16.ff\L	16.dd\L	16.ff\L
.	.	.	16B-/JJ	.	16B-/JJ	.	.	.	.	.	.	.	.	.	.	.	.	.
.	.	.	.	.	.	.	.	.	.	.	.	.	.	.	32b-/JJk	32ff\JJk	32dd\JJk	32ff\JJk
8BB-/	.	.	8B-/L	.	8B-/L	.	.	.	.	.	.	.	.	.	4b-/	4ff\	4dd\	4ff\
8BB-/J	.	.	8B-/J	.	8B-/J	.	.	.	.	.	.	.	.	.	.	.	.	.
=18	=18	=18	=18	=18	=18	=18	=18	=18	=18	=18	=18	=18	=18	=18	=18	=18	=18	=18
8BB-/	.	.	8B-/	.	8B-/	.	1r	.	1r	.	1r	.	1r	.	8b-/L	8ff\L	8dd\L	8ff\L
8r	.	.	8r	.	8r	.	.	.	.	.	.	.	.	.	16ff/L	16aa-\L	16ff\L	16aa-\L
.	.	.	.	.	.	.	.	.	.	.	.	.	.	.	16b-/JJ	16ff\JJ	16dd\JJ	16ff\JJ
8E-\	.	.	8e-/	.	8e-/	.	.	.	.	.	.	.	.	.	8ee-\L	8gg\L	8ee-\L	8gg\L
8r	.	.	8r	.	8r	.	.	.	.	.	.	.	.	.	16gg\L	16bb-\L	16gg\L	16bb-\L
.	.	.	.	.	.	.	.	.	.	.	.	.	.	.	16ee-\JJ	16gg\JJ	16ee-\JJ	16gg\JJ
8BB-/	.	.	8B-/	.	8B-/	.	.	.	.	.	.	.	.	.	8b-\L	8ff\L	8dd\L	8ff\L
8r	.	.	8r	.	8r	.	.	.	.	.	.	.	.	.	(24ff\L	(24aa-\L	(24ff\L	(24aa-\L
.	.	.	.	.	.	.	.	.	.	.	.	.	.	.	24ee-\	24gg\	24ee-\	24gg\
.	.	.	.	.	.	.	.	.	.	.	.	.	.	.	24b-\JJ)	24ff\JJ)	24dd\JJ)	24ff\JJ)
8E-\	.	.	8e-/	.	8e-/	.	.	.	.	.	.	.	.	.	8ee-\L	8gg\L	8ee-\L	8gg\L
8r	.	.	8r	.	8r	.	.	.	.	.	.	.	.	.	(24gg\L	(24bb-\L	(24gg\L	(24bb-\L
.	.	.	.	.	.	.	.	.	.	.	.	.	.	.	24ff\	24aa-\	24ff\	24aa-\
.	.	.	.	.	.	.	.	.	.	.	.	.	.	.	24ee-\JJ)	24gg\JJ)	24ee-\JJ)	24gg\JJ)
!LO:LB:g=original	!	!	!	!	!	!	!	!	!	!	!	!	!	!	!	!	!	!
=19	=19	=19	=19	=19	=19	=19	=19	=19	=19	=19	=19	=19	=19	=19	=19	=19	=19	=19
!	!	!	!	!	!	!	!LO:TX:a:i:t=Solo	!	!	!	!	!	!	!	!	!	!	!
4A-\	.	.	4a-\	.	4a-\	.	1r	.	1r	.	1r	.	1r	.	8aa-\L	8ccc\L	8aa-\L	8ccc\L
.	.	.	.	.	.	.	.	.	.	.	.	.	.	.	(24aa-\L	(24ccc\L	(24aa-\L	(24ccc\L
.	.	.	.	.	.	.	.	.	.	.	.	.	.	.	24gg\	24bb-\	24gg\	24bb-\
.	.	.	.	.	.	.	.	.	.	.	.	.	.	.	24ff\JJ)	24aa-\JJ)	24ff\JJ)	24aa-\JJ)
!LO:TX:t=P:problem=mixed beam	!	!	!LO:TX:t=P:problem=mixed beam	!	!LO:TX:t=P:problem=mixed beam	!	!	!	!	!	!	!	!	!	!	!	!	!
8B-\L	.	.	8b-\L	.	8b-\L	.	.	.	.	.	.	.	.	.	8ee-\L	8gg\L	8ee-\L	8gg\L
8BB-/J	.	.	8B-/J	.	8B-/J	.	.	.	.	.	.	.	.	.	8b-\J	8ff\J	8a-\J	8ff\J
*Xtremolo	*	*	*	*	*	*	*	*	*	*	*	*	*	*	*	*	*	*
8E-\L	.	.	8e-/L	.	8e-/L	.	.	.	.	.	.	.	.	.	8g/L	8ee-\L	8g/L	8ee-\L
8E-\	.	.	8e-/	.	8e-/	.	.	.	.	.	.	.	.	.	16.g/L	16.ee-\L	16.g/L	16.ee-\L
.	.	.	.	.	.	.	.	.	.	.	.	.	.	.	32g/JJk	32ee-\JJk	32g/JJk	32ee-\JJk
8E-\J	.	.	8e-/J	.	8e-/J	.	.	.	.	.	.	.	.	.	8g/	8ee-\	8g/	8ee-\
8r	.	.	8r	.	8r	.	.	.	.	.	.	.	.	.	8r	8r	8r	8r
!	!	!	!	!	!	!	!LO:LB:g=original	!	!	!	!	!	!	!	!	!	!LO:LB:g=original	!LO:LB:g=original
=20	=20	=20	=20	=20	=20	=20	=20	=20	=20	=20	=20	=20	=20	=20	=20	=20	=20	=20
!	!	!	!	!LO:DY:b:t=po	!	!	!LO:TX:a:i:t=Soli	!	!	!	!	!	!	!	!	!	!	!
1r	.	.	8r	p	8r	.	4B-\	li-	1r	.	1r	.	1r	.	1r	1r	1r	1r
!	!	!	!	!	!	!LO:DY:b:t=piano	!	!	!	!	!	!	!	!	!	!	!	!
.	.	.	8e-/L	.	8g/L	p	.	.	.	.	.	.	.	.	.	.	.	.
.	.	.	8e-/	.	8g/	.	8B-\	-be-	.	.	.	.	.	.	.	.	.	.
.	.	.	8e-/J	.	8g/J	.	8B-\	-ra	.	.	.	.	.	.	.	.	.	.
.	.	.	8r	.	8r	.	8.B-\L	e-	.	.	.	.	.	.	.	.	.	.
.	.	.	8d/L	.	8f/L	.	.	.	.	.	.	.	.	.	.	.	.	.
.	.	.	.	.	.	.	16c\Jk	.	.	.	.	.	.	.	.	.	.	.
.	.	.	8d/	.	8f/	.	8B-\	-as	.	.	.	.	.	.	.	.	.	.
.	.	.	8d/J	.	8f/J	.	16c\LL	de	.	.	.	.	.	.	.	.	.	.
.	.	.	.	.	.	.	16d\JJ	.	.	.	.	.	.	.	.	.	.	.
=21	=21	=21	=21	=21	=21	=21	=21	=21	=21	=21	=21	=21	=21	=21	=21	=21	=21	=21
!	!	!	!	!	!	!	!	!	!	!	!	!	!	!	!	!	!LO:TX:t=P:problem=pauza czterotaktowa niewidoczna - karta urwana	!
!	!	!	!	!	!	!	!	!	!	!	!	!	!	!	!	!	!LO:TX:a:t=5.	!LO:TX:a:t=5
1r	.	.	8r	.	8r	.	8.e-\L	o-	1r	.	1r	.	1r	.	1r	1r	1r	1r
.	.	.	8c/L	.	8e-/L	.	.	.	.	.	.	.	.	.	.	.	.	.
.	.	.	.	.	.	.	16A-\Jk	.	.	.	.	.	.	.	.	.	.	.
.	.	.	8c/	.	8e-/	.	8A-\	-re	.	.	.	.	.	.	.	.	.	.
.	.	.	8c/J	.	8e-/J	.	8A-\	Le-	.	.	.	.	.	.	.	.	.	.
.	.	.	8r	.	8r	.	16A-\LL	-o-	.	.	.	.	.	.	.	.	.	.
.	.	.	.	.	.	.	16G\	.	.	.	.	.	.	.	.	.	.	.
.	.	.	8B-/L	.	8d/L	.	16F#X\	.	.	.	.	.	.	.	.	.	.	.
.	.	.	.	.	.	.	16G\JJ	.	.	.	.	.	.	.	.	.	.	.
.	.	.	8B-/	.	8d/	.	4G\	-nis	.	.	.	.	.	.	.	.	.	.
.	.	.	8B-/J	.	8d/J	.	.	.	.	.	.	.	.	.	.	.	.	.
=22	=22	=22	=22	=22	=22	=22	=22	=22	=22	=22	=22	=22	=22	=22	=22	=22	=22	=22
!	!	!	!LO:TX:t=P:problem=takt zapisany na przedłużonej na marginesie pięciolinii	!	!	!	!	!	!	!	!	!	!	!	!	!	!	!
1r	.	.	8r	.	8r	.	8.c\	ne	1r	.	1r	.	1r	.	1r	1r	1r	1r
.	.	.	8A-/L	.	8c/L	.	.	.	.	.	.	.	.	.	.	.	.	.
.	.	.	.	.	.	.	16F\	ab-	.	.	.	.	.	.	.	.	.	.
.	.	.	8A-/	.	8c/	.	16F\LL	-sor-	.	.	.	.	.	.	.	.	.	.
.	.	.	.	.	.	.	16A-\JJ	.	.	.	.	.	.	.	.	.	.	.
.	.	.	8A-/J	.	8c/J	.	16G\	-be-	.	.	.	.	.	.	.	.	.	.
.	.	.	.	.	.	.	16F\	-at,	.	.	.	.	.	.	.	.	.	.
.	.	.	8r	.	8r	.	8.B-\	ne	.	.	.	.	.	.	.	.	.	.
.	.	.	8G/L	.	8B-/L	.	.	.	.	.	.	.	.	.	.	.	.	.
.	.	.	.	.	.	.	16E-\	ab-	.	.	.	.	.	.	.	.	.	.
.	.	.	8G/	.	8B-/	.	16E-\LL	-sor-	.	.	.	.	.	.	.	.	.	.
.	.	.	.	.	.	.	16G\JJ	.	.	.	.	.	.	.	.	.	.	.
.	.	.	8G/J	.	8B-/J	.	16F\	-be-	.	.	.	.	.	.	.	.	.	.
.	.	.	.	.	.	.	16E-\	-at	.	.	.	.	.	.	.	.	.	.
!	!	!	!LO:PB:g=original	!	!	!	!	!	!	!	!	!	!	!	!	!	!	!
=23	=23	=23	=23	=23	=23	=23	=23	=23	=23	=23	=23	=23	=23	=23	=23	=23	=23	=23
8r	.	.	2r	.	16B-/LL	.	16D\LL	e-	2r	.	1r	.	1r	.	1r	1r	1r	1r
.	.	.	.	.	16d/JJ	.	16F\JJ	.	.	.	.	.	.	.	.	.	.	.
8BB-\L	.	.	.	.	4f/	.	4A-\	.	.	.	.	.	.	.	.	.	.	.
!	!	!LO:DY:b:t=po.	!	!	!	!	!	!	!	!	!	!	!	!	!	!	!	!
8D\	.	p	.	.	.	.	.	.	.	.	.	.	.	.	.	.	.	.
8E-\J	.	.	.	.	8e-/	.	8G\	-as	.	.	.	.	.	.	.	.	.	.
!LO:TX:t=P:problem=mixed beam	!	!	!	!LO:DY:b:t=po.	!	!	!	!	!	!	!	!	!	!	!	!	!	!
!	!	!	!	!	!LO:LB:g=original	!	!LO:LB:g=original	!	!	!	!	!	!	!	!	!	!	!
8B-\L	6 4	.	4r	p	16.e-/LL	.	16.G\	Tar-	4r	.	.	.	.	.	.	.	.	.
.	.	.	.	.	32d/JK	.	32F\	-ta-	.	.	.	.	.	.	.	.	.	.
8BB-/J	5 3	.	.	.	8d/J	.	8F\	-rus,	.	.	.	.	.	.	.	.	.	.
8BB-|>/L	.	.	8dd\L	.	8ff\L	.	8r	.	8r	.	.	.	.	.	.	.	.	.
!	!	!	!	!	!	!	!	!	!LO:TX:a:i:t=Solo	!	!	!	!	!	!	!	!	!
8BB-|>/J	.	.	8dd\J	.	8ff\J	.	8F\	ne	8d\	ne	.	.	.	.	.	.	.	.
=24	=24	=24	=24	=24	=24	=24	=24	=24	=24	=24	=24	=24	=24	=24	=24	=24	=24	=24
*tremolo	*	*	*	*	*	*	*	*	*	*	*	*	*	*	*	*	*	*
!LO:TX:t=P:problem=nad nutą cztery pionowe kreski artykulacyjne	!	!	!	!	!	!	!	!	!	!	!	!	!	!	!	!	!	!
8BB-/L	.	.	16ee-\LL	.	16gg\LL	.	16G\LL	ca-	16e-\LL	ca-	1r	.	1r	.	1r	1r	1r	1r
.	.	.	16gg\JJ	.	16bb-\JJ	.	16B-\JJ	.	16g\JJ	.	.	.	.	.	.	.	.	.
8BB-/	.	.	4gg\	.	4bb-\	.	4B-\	-dant	4g\	-dant	.	.	.	.	.	.	.	.
8BB-/	.	.	.	.	.	.	.	.	.	.	.	.	.	.	.	.	.	.
8BB-/J	.	.	16ff\LL	.	16aa-\LL	.	16A-\	in	16f\	in	.	.	.	.	.	.	.	.
.	.	.	16ee-\JJ	.	16gg\JJ	.	16G\	ob-	16e-\	ob-	.	.	.	.	.	.	.	.
8BB-/L	.	.	16ee-\LL	.	16gg\LL	.	16G\LL	-scu-	16e-\LL	-scu-	.	.	.	.	.	.	.	.
.	.	.	16dd\J	.	16ff\J	.	16F\JJ	.	16d\JJ	.	.	.	.	.	.	.	.	.
8BB-/	.	.	8dd\J	.	8ff\J	.	8F\	-rum,	8d\	-rum	.	.	.	.	.	.	.	.
8BB-/	.	.	8r	.	8r	.	8r	.	8r	.	.	.	.	.	.	.	.	.
8BB-/J	.	.	8dd\	.	8ff\	.	8F\	ne	8d\	ne	.	.	.	.	.	.	.	.
=25	=25	=25	=25	=25	=25	=25	=25	=25	=25	=25	=25	=25	=25	=25	=25	=25	=25	=25
8BB-/L	.	.	16ee-\LL	.	16gg\LL	.	16G\LL	ca-	16e-\LL	ca-	2r	.	2r	.	2r	2r	2r	2r
.	.	.	16gg\JJ	.	16bb-\JJ	.	16B-\JJ	.	16g\JJ	.	.	.	.	.	.	.	.	.
8BB-/	.	.	4gg\	.	4bb-\	.	4B-\	-dant	4g\	-dant	.	.	.	.	.	.	.	.
8BB-/	.	.	.	.	.	.	.	.	.	.	.	.	.	.	.	.	.	.
8BB-/J	.	.	16ff\LL	.	16aa-\LL	.	16A-\	in	16f\	in	.	.	.	.	.	.	.	.
.	.	.	16ee-\JJ	.	16gg\JJ	.	16G\	ob-	16e-\	ob-	.	.	.	.	.	.	.	.
*Xtremolo	*	*	*	*	*	*	*	*	*	*	*	*	*	*	*	*	*	*
8BB-/L	.	.	16ee-\LL	.	16gg\LL	.	16G\LL	-scu-	16e-\LL	-scu-	4r	.	4r	.	4r	4r	4r	4r
.	.	.	16dd\J	.	16ff\J	.	16F\JJ	.	16d\JJ	.	.	.	.	.	.	.	.	.
8BB-/J	.	.	8dd\J	.	8ff\J	.	8F\	-rum,	8d\	-rum	.	.	.	.	.	.	.	.
!	!	!	!	!	!LO:TX:t=P:Tutti=T:global:problem	!	!	!	!	!	!	!	!	!	!	!	!	!
!	!	!	!LO:TX:a:i:t=Tutti	!	!LO:TX:a:i:t=T&colon;	!	!	!	!	!	!	!	!	!	!	!	!	!
!	!	!LO:DY:b:t=for	!	!LO:DY:b:t=for	!	!LO:DY:b:t=for	!	!	!	!	!	!	!	!	!	!	!	!
8B-\L	3	f	16d/LL	f	16dd\LL	f	8B-\L	ſed	8r	.	8r	.	8r	.	8r	8r	8r	8r
.	.	.	16f/	.	16ff\	.	.	.	.	.	.	.	.	.	.	.	.	.
!	!	!	!	!	!	!	!	!	!LO:TX:a:i:t=Tutti	!	!	!	!	!	!	!	!	!LO:TX:a:i:t=T&colon;
8A-\J	4 2	.	16B-/	.	16b-\	.	8A-\J	.	8B-\	ſed	8f\	ſed	8dd\	ſed	8b-/	8ff\	8f/	8dd\
.	.	.	16d/JJ	.	16dd\JJ	.	.	.	.	.	.	.	.	.	.	.	.	.
=26	=26	=26	=26	=26	=26	=26	=26	=26	=26	=26	=26	=26	=26	=26	=26	=26	=26	=26
.	.	.	8qqf/	.	8qqff/	.	.	.	.	.	.	.	.	.	.	.	.	.
!	!	!	!	!	!	!	!	!	!LO:LB:g=original	!	!	!	!	!	!	!	!	!
8G\L	x 6	.	8e-/L	.	8ee-\L	.	8G\	ſi-	8B-\	ſi-	8g\	ſig-	8ee-\	ſi-	4ee-\	4gg\	8g/L	8ee-\L
8E-\	.	.	8e-/J	.	8ee-\J	.	16E-\	-gni-	16B-\	-gni-	16g\	-ni-	16ee-\	-gni-	.	.	8g/J	8ee-\
.	.	.	.	.	.	.	16E-\	-fer	16B-\	-fer	16g\	-fer	16ee-\	-fer	.	.	.	.
8BB-\	.	.	16d/LL	.	16dd\LL	.	8BB-/	ſanc-	8B-\	ſan-	8b-\	ſanc-	8ff\	ſanc-	4b-/	4ff\	8b-\L	8ff\
.	.	.	16f/	.	16ff\	.	.	.	.	.	.	.	.	.	.	.	.	.
8D\J	.	.	16b-/	.	16bb-\	.	8D/	-tus	8B-\	-ctus	8b-\	-tus	8ff\	-tus	.	.	8b-\J	8ff\J
.	.	.	16a-/JJ	.	16aa-\JJ	.	.	.	.	.	.	.	.	.	.	.	.	.
.	.	.	8qqa-/	.	8qqaa-/	.	.	.	.	.	.	.	.	.	.	.	.	.
!	!	!	!	!	!	!	!LO:LB:g=original	!	!	!	!	!	!	!	!	!	!	!
8E-\L	.	.	8g/L	.	8gg\L	.	16E-\	Mi-	16B-\	Mi-	16g\	Mi-	16ee-\	Mi-	4ee-\	4gg\	8g/L	8ee-\L
.	.	.	.	.	.	.	16E-\	-cha-	16B-\	-cha-	16g\	-cha-	16ee-\	-cha-	.	.	.	.
8G\	.	.	8e-/J	.	8ee-\J	.	8E-\	-el	8B-\	-el	8g\	-el	8ee-\	-el	.	.	8g/J	8ee-\J
8B-\	3_	.	16d/LL	.	16dd\LL	.	8B-\	re-	8r	.	8r	.	8r	.	8r	8r	8r	8r
.	.	.	16f/	.	16ff\	.	.	.	.	.	.	.	.	.	.	.	.	.
8A-\J	x	.	16B-/	.	16b-\	.	8A-\	-prae-	16B-\	re-	16f\	re-	16dd\	re-	8b-/	8ff\	8f/	8dd\
.	.	.	16d/JJ	.	16dd\JJ	.	.	.	16B-\	-prae-	16f\	-prae-	16dd\	-prae-	.	.	.	.
!	!	!	!	!	!	!	!	!	!	!	!	!	!LO:LB:g=original	!	!LO:LB:g=original	!LO:LB:g=original	!	!
=27	=27	=27	=27	=27	=27	=27	=27	=27	=27	=27	=27	=27	=27	=27	=27	=27	=27	=27
8G\L	.	.	32f/LLL	.	32ff\LLL	.	8G\	-sen-	8B-\	-sen-	8g\	-sen-	8ee-\	-sen-	4ee-\	4gg\	8g\L	8ee-\L
.	.	.	32e-/	.	32ee-\	.	.	.	.	.	.	.	.	.	.	.	.	.
.	.	.	32d/	.	32dd\	.	.	.	.	.	.	.	.	.	.	.	.	.
.	.	.	32e-/JJ	.	32ee-\JJ	.	.	.	.	.	.	.	.	.	.	.	.	.
8E-\	.	.	8e-/J	.	8ee-\J	.	8E-\	-tet	8B-\	-tet	8g\	-tes	8ee-\	-tet	.	.	8g\	8ee-\
8BB-\	.	.	16d/LL	.	16dd\LL	.	8BB-/	e-	8B-\	e-	8b-\	e-	8ff\	e-	4b-/	4ff\	8b-\	8ff\
.	.	.	16f/	.	16ff\	.	.	.	.	.	.	.	.	.	.	.	.	.
8D\J	.	.	16b-/	.	16bb-\	.	16D\	-as	16B-\	-as	16b-\	-as	16ff\	-as	.	.	8b-\J	8ff\J
.	.	.	16a-/JJ	.	16aa-\JJ	.	16D\	in	16B-\	in	16b-\	in	16ff\	in	.	.	.	.
!	!	!	!LO:LB:g=original	!	!	!	!	!	!	!	!LO:LB:g=original	!	!	!	!	!	!	!
8E-\L	.	.	32a-/LLL	.	32aa-\LLL	.	8E-\	lu-	8B-\	lu-	8g\	lu-	8ee-\	lu-	4g/	4ee-\	8g/L	8ee-\L
.	.	.	32g/	.	32gg\	.	.	.	.	.	.	.	.	.	.	.	.	.
.	.	.	32f/	.	32ff\	.	.	.	.	.	.	.	.	.	.	.	.	.
.	.	.	32g/JJ	.	32gg\JJ	.	.	.	.	.	.	.	.	.	.	.	.	.
8E-\	.	.	8g/J	.	8gg\J	.	8E-\	-cem	8B-\	-cem	8g\	-cem	8ee-\	-cem	.	.	8g/J	8ee-\J
8G\	.	.	8b-\L	.	16bb-\LL	.	8r	.	8r	.	8r	.	8r	.	4r	4r	8r	8r
.	.	.	.	.	16gg\	.	.	.	.	.	.	.	.	.	.	.	.	.
*	*	*	*	*	*	*	*	*ij	*	*ij	*	*	*	*	*	*	*	*
8G\J	.	.	8b-\J	.	16ee-\	.	8G\	in	8e-\	in	8g\	in	8b-\	in	.	.	8g/	8b-\
.	.	.	.	.	16b-\JJ	.	.	.	.	.	.	.	.	.	.	.	.	.
!LO:LB:g=original	!	!	!	!	!LO:PB:g=original	!	!	!	!	!	!	!	!	!	!	!	!	!
=28	=28	=28	=28	=28	=28	=28	=28	=28	=28	=28	=28	=28	=28	=28	=28	=28	=28	=28
4A-\	.	.	8a-\L	.	16cc\LL	.	8A-\	lu-	8A-\	lu-	8e-\	lu-	8cc\	lu-	4r	4r	8e-/	8cc\
.	.	.	.	.	16cc\	.	.	.	.	.	.	.	.	.	.	.	.	.
.	.	.	16cc\L	.	16aa-\	.	8A-\	-cem	8A-\	-cem	16cc\LL	-cem	16aa-\LL	-cem	.	.	8r	8r
*	*	*	*	*	*	*	*	*Xij	*	*Xij	*	*	*	*	*	*	*	*
.	.	.	16b-\JJ	.	16gg\JJ	.	.	.	.	.	16b-\JJ	.	16gg\JJ	.	.	.	.	.
!LO:TX:t=P:problem=mixed beam	!	!	!	!	!	!	!LO:TX:t=P:problem=mixed beam	!	!	!	!	!	!	!	!	!	!	!
8B-\L	.	.	16b-/LL	.	16gg\LL	.	8B-\L	Sanc-	8r	.	16b-\LL	Sanc-	16gg\LL	Sanc-	16gg\LL	16bb-\LL	16b-/LL	16gg\LL
.	.	.	16a-/	.	16ff\	.	.	.	.	.	16a-\	.	16ff\	.	16ff\	16aa-\	16a-/	16ff\
8BB-/J	.	.	16g/	.	16ee-\	.	8BB-/J	.	8B-\	ſan-	16g\	.	16ee-\	.	16ee-\	16gg\	16g/	16ee-\
.	.	.	16f/JJ	.	16dd\JJ	.	.	.	.	.	16f\JJ	.	16dd\JJ	.	16b-\JJ	16ff\JJ	16f/JJ	16dd\JJ
!	!	!	!	!	!	!	!	!	!LO:LB:g=original	!	!	!	!	!	!	!	!	!LO:TX:a:i:t=Solo
4E-\	.	.	4g/	.	4ee-\	.	4E-\	-tam.	4B-\	-ctam.	4g\	-tam.	4ee-\	-tam.	4g/	4ee-\	4g/	8.ee-\L
.	.	.	.	.	.	.	.	.	.	.	.	.	.	.	.	.	.	16bb-\Jk
8r	.	.	8r	.	8r	.	4r	.	4r	.	4r	.	4r	.	4r	4r	4r	32bb-\LLL
.	.	.	.	.	.	.	.	.	.	.	.	.	.	.	.	.	.	32aa-\
.	.	.	.	.	.	.	.	.	.	.	.	.	.	.	.	.	.	32gg\
.	.	.	.	.	.	.	.	.	.	.	.	.	.	.	.	.	.	32aa-\JJJ
!	!	!LO:DY:b:t=po	!	!LO:DY:b:t=po	!	!LO:DY:b:t=pia.	!	!	!	!	!	!	!	!	!	!	!	!
8G|\	.	p	8g/	p	8e-/	p	.	.	.	.	.	.	.	.	.	.	.	32gg\LLL
.	.	.	.	.	.	.	.	.	.	.	.	.	.	.	.	.	.	32ff\
.	.	.	.	.	.	.	.	.	.	.	.	.	.	.	.	.	.	32ee-\
.	.	.	.	.	.	.	.	.	.	.	.	.	.	.	.	.	.	32dd\JJJ
=29	=29	=29	=29	=29	=29	=29	=29	=29	=29	=29	=29	=29	=29	=29	=29	=29	=29	=29
8A-|\L	.	.	8a-/L	.	8e-/L	.	1r	.	1r	.	1r	.	1r	.	1r	1r	1r	32dd\LLL
.	.	.	.	.	.	.	.	.	.	.	.	.	.	.	.	.	.	32cc\
.	.	.	.	.	.	.	.	.	.	.	.	.	.	.	.	.	.	32bX\
.	.	.	.	.	.	.	.	.	.	.	.	.	.	.	.	.	.	32cc\JJJ
8A-|\	.	.	8a-/J	.	8e-/J	.	.	.	.	.	.	.	.	.	.	.	.	16cc\LL
.	.	.	.	.	.	.	.	.	.	.	.	.	.	.	.	.	.	16aa-X\JJ
8F|\	.	.	8r	.	8r	.	.	.	.	.	.	.	.	.	.	.	.	32aa-\LLL
.	.	.	.	.	.	.	.	.	.	.	.	.	.	.	.	.	.	32gg\
.	.	.	.	.	.	.	.	.	.	.	.	.	.	.	.	.	.	32ff\
.	.	.	.	.	.	.	.	.	.	.	.	.	.	.	.	.	.	32gg\JJJ
8F|\J	.	.	8f/	.	8d/	.	.	.	.	.	.	.	.	.	.	.	.	32ff\LLL
.	.	.	.	.	.	.	.	.	.	.	.	.	.	.	.	.	.	32ee-\
.	.	.	.	.	.	.	.	.	.	.	.	.	.	.	.	.	.	32dd\
.	.	.	.	.	.	.	.	.	.	.	.	.	.	.	.	.	.	32cc\JJJ
!	!	!	!	!	!	!	!	!	!	!	!	!	!	!	!	!	!	!LO:LB:g=original
8G|\L	.	.	8g/L	.	8d/L	.	.	.	.	.	.	.	.	.	.	.	.	32cc\LLL
.	.	.	.	.	.	.	.	.	.	.	.	.	.	.	.	.	.	32b\
.	.	.	.	.	.	.	.	.	.	.	.	.	.	.	.	.	.	32a\
.	.	.	.	.	.	.	.	.	.	.	.	.	.	.	.	.	.	32b\JJJ
8G|\	.	.	8g/J	.	8d/J	.	.	.	.	.	.	.	.	.	.	.	.	16b\LL
.	.	.	.	.	.	.	.	.	.	.	.	.	.	.	.	.	.	16gg\JJ
8E-|\	.	.	8r	.	8r	.	.	.	.	.	.	.	.	.	.	.	.	32gg\LLL
.	.	.	.	.	.	.	.	.	.	.	.	.	.	.	.	.	.	32ff\
.	.	.	.	.	.	.	.	.	.	.	.	.	.	.	.	.	.	32ee-\
.	.	.	.	.	.	.	.	.	.	.	.	.	.	.	.	.	.	32ff\JJJ
8E-|\J	.	.	8e-/	.	8c/	.	.	.	.	.	.	.	.	.	.	.	.	32ee-\LLL
.	.	.	.	.	.	.	.	.	.	.	.	.	.	.	.	.	.	32dd\
.	.	.	.	.	.	.	.	.	.	.	.	.	.	.	.	.	.	32cc\
.	.	.	.	.	.	.	.	.	.	.	.	.	.	.	.	.	.	32b\JJJ
=30	=30	=30	=30	=30	=30	=30	=30	=30	=30	=30	=30	=30	=30	=30	=30	=30	=30	=30
8F\L	.	.	8f/L	.	8c/L	.	1r	.	1r	.	1r	.	1r	.	1r	1r	1r	32b-\LLL
.	.	.	.	.	.	.	.	.	.	.	.	.	.	.	.	.	.	32a-\
.	.	.	.	.	.	.	.	.	.	.	.	.	.	.	.	.	.	32g\
.	.	.	.	.	.	.	.	.	.	.	.	.	.	.	.	.	.	32a-X\JJJ
8F\J	.	.	8f/J	.	8c/J	.	.	.	.	.	.	.	.	.	.	.	.	16a-\LL
.	.	.	.	.	.	.	.	.	.	.	.	.	.	.	.	.	.	16ff\JJ
8r	.	.	8r	.	8r	.	.	.	.	.	.	.	.	.	.	.	.	32ff\LLL
.	.	.	.	.	.	.	.	.	.	.	.	.	.	.	.	.	.	32ee-\
.	.	.	.	.	.	.	.	.	.	.	.	.	.	.	.	.	.	32dd\
.	.	.	.	.	.	.	.	.	.	.	.	.	.	.	.	.	.	32ee-\JJJ
8D\	.	.	8d/	.	8B-/	.	.	.	.	.	.	.	.	.	.	.	.	32dd\LLL
.	.	.	.	.	.	.	.	.	.	.	.	.	.	.	.	.	.	32cc\
.	.	.	.	.	.	.	.	.	.	.	.	.	.	.	.	.	.	32b-\
.	.	.	.	.	.	.	.	.	.	.	.	.	.	.	.	.	.	32a-\JJJ
8E-\L	.	.	8e-/L	.	8B-/L	.	.	.	.	.	.	.	.	.	.	.	.	16g\LL
.	.	.	.	.	.	.	.	.	.	.	.	.	.	.	.	.	.	16ee-\JJ
8E-\	.	.	8e-/J	.	8B-/J	.	.	.	.	.	.	.	.	.	.	.	.	32ee-\LLL
.	.	.	.	.	.	.	.	.	.	.	.	.	.	.	.	.	.	32dd\
.	.	.	.	.	.	.	.	.	.	.	.	.	.	.	.	.	.	32ee-\
.	.	.	.	.	.	.	.	.	.	.	.	.	.	.	.	.	.	32ff\JJJ
!	!	!	!	!	!LO:TX:t=P:problem=mixed beam	!	!	!	!	!	!	!	!	!	!	!	!	!
8G\	.	.	4e-/	.	8B-/L	.	.	.	.	.	.	.	.	.	.	.	.	16gg\LL
.	.	.	.	.	.	.	.	.	.	.	.	.	.	.	.	.	.	16ee-\
8G\J	.	.	.	.	8b-\J	.	.	.	.	.	.	.	.	.	.	.	.	16dd\
.	.	.	.	.	.	.	.	.	.	.	.	.	.	.	.	.	.	16ee-\JJ
=31	=31	=31	=31	=31	=31	=31	=31	=31	=31	=31	=31	=31	=31	=31	=31	=31	=31	=31
8A-\	.	.	8c/	.	8cc\	.	1r	.	1r	.	1r	.	1r	.	1r	1r	1r	16cc\LL
.	.	.	.	.	.	.	.	.	.	.	.	.	.	.	.	.	.	16eeX\
8r	.	.	8r	.	8r	.	.	.	.	.	.	.	.	.	.	.	.	16ff\
.	.	.	.	.	.	.	.	.	.	.	.	.	.	.	.	.	.	16gg\JJ
4r	.	.	4r	.	4r	.	.	.	.	.	.	.	.	.	.	.	.	16aa-\LL
.	.	.	.	.	.	.	.	.	.	.	.	.	.	.	.	.	.	16ccc\
.	.	.	.	.	.	.	.	.	.	.	.	.	.	.	.	.	.	32bb-\L
.	.	.	.	.	.	.	.	.	.	.	.	.	.	.	.	.	.	32aa-\
.	.	.	.	.	.	.	.	.	.	.	.	.	.	.	.	.	.	32gg\
.	.	.	.	.	.	.	.	.	.	.	.	.	.	.	.	.	.	32ff\JJJ
8r	.	.	8r	.	8r	.	.	.	.	.	.	.	.	.	.	.	.	4bb-\
8B-\L	6_ 4_	.	8e-/L	.	8g/L	.	.	.	.	.	.	.	.	.	.	.	.	.
8B-\	.	.	8e-/	.	8g/	.	.	.	.	.	.	.	.	.	.	.	.	32aa\LLL
.	.	.	.	.	.	.	.	.	.	.	.	.	.	.	.	.	.	32bb-\
.	.	.	.	.	.	.	.	.	.	.	.	.	.	.	.	.	.	32ccc\
.	.	.	.	.	.	.	.	.	.	.	.	.	.	.	.	.	.	32bb-\JJJ
8B-\J	x x	.	8e-/J	.	8g/J	.	.	.	.	.	.	.	.	.	.	.	.	32aa-X\LLL
.	.	.	.	.	.	.	.	.	.	.	.	.	.	.	.	.	.	32gg\
.	.	.	.	.	.	.	.	.	.	.	.	.	.	.	.	.	.	32ff\
.	.	.	.	.	.	.	.	.	.	.	.	.	.	.	.	.	.	32ee\JJJ
!	!	!	!	!	!	!	!	!	!	!	!	!	!	!	!	!	!	!LO:LB:g=original
=32	=32	=32	=32	=32	=32	=32	=32	=32	=32	=32	=32	=32	=32	=32	=32	=32	=32	=32
8r	.	.	8r	.	8r	.	1r	.	1r	.	1r	.	1r	.	1r	1r	2r	2ffT\
8B-\L	5_ 3_	.	8d/L	.	8a-/L	.	.	.	.	.	.	.	.	.	.	.	.	.
8B-\	.	.	8d/	.	8a-/	.	.	.	.	.	.	.	.	.	.	.	.	.
8B-\J	x x	.	8d/J	.	8a-/J	.	.	.	.	.	.	.	.	.	.	.	.	.
8E-\	.	.	8e-/	.	8g/	.	.	.	.	.	.	.	.	.	.	.	8r	8ee-\
8r	.	.	8r	.	8r	.	.	.	.	.	.	.	.	.	.	.	16r	16r
!	!	!	!	!	!	!	!	!	!	!	!	!	!	!	!	!	!LO:TX:a:i:t=Soli	!LO:TX:a:i:t=Solo
.	.	.	.	.	.	.	.	.	.	.	.	.	.	.	.	.	16dd\	16ff\
4r	.	.	4r	.	4r	.	.	.	.	.	.	.	.	.	.	.	16ee-\LL	16gg\LL
.	.	.	.	.	.	.	.	.	.	.	.	.	.	.	.	.	16ff\	16aa-\
.	.	.	.	.	.	.	.	.	.	.	.	.	.	.	.	.	16gg\	16bb-\
.	.	.	.	.	.	.	.	.	.	.	.	.	.	.	.	.	16ff\JJ	16aa-\JJ
!	!	!	!LO:LB:g=original	!	!LO:LB:g=original	!	!	!	!	!	!	!	!	!	!	!	!LO:LB:g=original	!
=33	=33	=33	=33	=33	=33	=33	=33	=33	=33	=33	=33	=33	=33	=33	=33	=33	=33	=33
8r	.	.	8r	.	8r	.	8r	.	8r	.	8r	.	8r	.	4r	4r	8a-\	8gg\
!LO:TX:a:i:t=T&colon;	!	!	!LO:TX:a:i:t=Tutti	!LO:DY:b:t=for	!	!	!	!	!	!	!	!	!	!	!	!	!	!
8E-\	.	.	8e-/	f	16r	.	8E-\	in	8B-\	in	8e-\	in	8g\	in	.	.	8r	8r
!	!	!	!	!	!LO:TX:a:i:t=T&colon;	!	!	!	!	!	!	!	!	!	!	!	!	!
!	!	!	!	!	!	!LO:DY:b:t=for	!	!	!	!	!	!	!	!	!	!	!	!
.	.	.	.	.	16gg\	f	.	.	.	.	.	.	.	.	.	.	.	.
4C/	6\	.	4e-/	.	16ff\LL	.	4C/	lu-	4f\	lu-	4e-\	lu-	4an\	lu-	8r	8r	4r	4r
.	.	.	.	.	(16ee-\	.	.	.	.	.	.	.	.	.	.	.	.	.
.	.	.	.	.	16cc\	.	.	.	.	.	.	.	.	.	8ff\	8ff\	.	.
.	.	.	.	.	16an\JJ)	.	.	.	.	.	.	.	.	.	.	.	.	.
4BB-/	.	.	4d/	.	4b-\	.	4BB-/	-cem	4f\	-cem	4d\	-cem	4b-\	-cem	4b-/	4ff\	8r	8r
.	.	.	.	.	.	.	.	.	.	.	.	.	.	.	.	.	16r	16r
.	.	.	.	.	.	.	.	.	.	.	.	.	.	.	.	.	16dd\	16ff\
4r	.	.	4r	.	4r	.	4r	.	4r	.	4r	.	4r	.	4r	4r	16ee-\LL	16gg\LL
.	.	.	.	.	.	.	.	.	.	.	.	.	.	.	.	.	16ff\	16aa-\
.	.	.	.	.	.	.	.	.	.	.	.	.	.	.	.	.	16gg\	16bb-\
.	.	.	.	.	.	.	.	.	.	.	.	.	.	.	.	.	16ff\JJ	16aa-\JJ
!LO:LB:g=original	!	!	!	!	!	!	!LO:LB:g=original	!	!	!	!	!	!LO:LB:g=original	!	!	!	!	!
=34	=34	=34	=34	=34	=34	=34	=34	=34	=34	=34	=34	=34	=34	=34	=34	=34	=34	=34
!LO:TX:t=P:problem=pierwsza nuta niewidoczna - brzeg karty urwany	!	!	!	!	!	!	!	!	!	!	!	!	!	!	!	!	!	!
8Cyy\	.	.	8r	.	8r	.	8r	.	8r	.	8r	.	8r	.	4r	4r	8ee-\	8gg\
8E-\	.	.	8e-/	.	16r	.	8E-\	ſan-	8B-\	ſan-	8e-\	ſanc-	8g\	ſanc-	.	.	8r	8r
.	.	.	.	.	16gg|\	.	.	.	.	.	.	.	.	.	.	.	.	.
4C/	6\	.	4e-/	.	(16ff\LL	.	4C/	.	4f\	.	4e-\	.	4an\	.	8r	8r	4r	4r
.	.	.	.	.	16ee-\	.	.	.	.	.	.	.	.	.	.	.	.	.
.	.	.	.	.	16cc\	.	.	.	.	.	.	.	.	.	8ff\	8ff\	.	.
.	.	.	.	.	16an\JJ)	.	.	.	.	.	.	.	.	.	.	.	.	.
8BB-/	.	.	8d/	.	16b-|\LL	.	8BB-/	-ctam	8f\	-ctam	8d\	-tam	8b-\	-tam	8b-/	8ff\	8r	8r
.	.	.	.	.	(16gg\	.	.	.	.	.	.	.	.	.	.	.	.	.
16r	.	.	16r	.	16ff\)	.	16r	.	16r	.	16r	.	16r	.	16r	16r	16r	16r
*	*	*	*	*	*	*	*	*ij	*	*ij	*	*ij	*	*ij	*	*	*	*
16C/	6\	.	16e-/	.	16a|\JJ	.	16C/	ſan-	16f\	ſan-	16e-\	ſanc-	16a\	ſanc-	16ff\	16ff\	16e-/	16a\
8BB-/	.	.	8d/	.	16b-|\LL	.	8BB-/	-ctam	8f\	-ctam	8d\	-tam	8b-\	-tam	8b-/	8ff\	8d/	8b-\
*	*	*	*	*	*	*	*	*Xij	*	*Xij	*	*Xij	*	*Xij	*	*	*	*
.	.	.	.	.	(16gg\	.	.	.	.	.	.	.	.	.	.	.	.	.
16r	.	.	16r	.	16ff\)	.	16r	.	16r	.	16r	.	16r	.	16r	16r	16r	16r
*	*	*	*	*	*	*	*	*ij	*	*ij	*	*ij	*	*ij	*	*	*	*
16C/	6\	.	16e-/	.	16a|\JJ	.	16C/	ſan-	16f\	ſan-	16e-\	ſanc-	16a\	ſanc-	16ff\	16ff\	16e-/	16a\
=35	=35	=35	=35	=35	=35	=35	=35	=35	=35	=35	=35	=35	=35	=35	=35	=35	=35	=35
8BB-/L	.	.	8d/L	.	8b-|\L	.	8BB-/	-ctam	8f\	-ctam	8d\	-tam	8b-\	-tam	8b-/L	8ff\L	8d/L	8b-\L
*	*	*	*	*	*	*	*	*Xij	*	*Xij	*	*Xij	*	*Xij	*	*	*	*
8BB-/J	.	.	8d/J	.	8b-|\J	.	8r	.	8r	.	8r	.	8r	.	8b-/J	8ff\J	8d/J	8b-\J
4BB-/	.	.	4d/	.	4b-|\	.	4r	.	4r	.	4r	.	4r	.	4b-/	4ff\	4d/	4b-\
8E-\	.	.	8g/L	.	(16ee-\LL	.	2r	.	2r	.	2r	.	2r	.	2r	2r	2r	2r
.	.	.	.	.	16b-\)	.	.	.	.	.	.	.	.	.	.	.	.	.
8r	.	.	16g/L	.	16b-|\	.	.	.	.	.	.	.	.	.	.	.	.	.
.	.	.	16g/JJ	.	16b-|\JJ	.	.	.	.	.	.	.	.	.	.	.	.	.
8E-\	.	.	(16g/LL	.	(16b-/LL	.	.	.	.	.	.	.	.	.	.	.	.	.
.	.	.	16e-/)	.	16g/)	.	.	.	.	.	.	.	.	.	.	.	.	.
8r	.	.	16e-'/	.	16g|/	.	.	.	.	.	.	.	.	.	.	.	.	.
.	.	.	16e-'/JJ	.	16g|/JJ	.	.	.	.	.	.	.	.	.	.	.	.	.
!	!	!	!	!	!	!	!	!	!	!	!LO:LB:g=original	!	!	!	!	!	!	!
=36	=36	=36	=36	=36	=36	=36	=36	=36	=36	=36	=36	=36	=36	=36	=36	=36	=36	=36
8E-\	.	.	(16B-/LL	.	(16g/LL	.	2r	.	2r	.	2r	.	2r	.	2r	2r	2r	2r
.	.	.	16G/)	.	16e-/)	.	.	.	.	.	.	.	.	.	.	.	.	.
8r	.	.	16G'/	.	16e-'/	.	.	.	.	.	.	.	.	.	.	.	.	.
.	.	.	16G'/JJ	.	16e-'/JJ	.	.	.	.	.	.	.	.	.	.	.	.	.
8E-\	.	.	4G/	.	4e-|/	.	.	.	.	.	.	.	.	.	.	.	.	.
8r	.	.	.	.	.	.	.	.	.	.	.	.	.	.	.	.	.	.
!	!	!	!	!	!	!	!	!	!	!	!	!	!	!	!	!LO:PB:g=original	!	!LO:LB:g=original
!	!	!	!	!	!	!	!	!	!	!	!	!	!	!	!	!	!	!LO:TX:a:i:t=Tutti
8BB-/L	5 3	.	8dd\L	.	8ff\L	.	8BB-/	re-	8B-\	re-	8d\	re-	8f/	re-	8b-/L	8ff\L	8dd\L	8ff\L
8BB-/	.	.	16.dd\L	.	16.ff\L	.	8BB-/	-pre-	8B-\	-prae-	8d\	-prae-	8f/	-prae-	16.b-/L	16.ff\L	16.dd\L	16.ff\L
.	.	.	32dd\JJk	.	32ff\JJk	.	.	.	.	.	.	.	.	.	32b-/JJk	32ff\JJk	32dd\JJk	32ff\JJk
!	!	!	!LO:TX:t=P:problem=mixed beam	!	!	!	!	!	!	!	!	!	!	!	!	!	!LO:TX:t=P:problem=mixed beam	!
8BB-/	.	.	8dd\L	.	8ff\L	.	8BB-/	-sen-	8B-\	-sen-	8d\	-sen-	8f/	-sen-	8b-/L	8ff\L	8dd\L	8ff\L
8E-/J	.	.	16ee-\L	.	16gg\L	.	8E-\	-tet	8B-\	-tet	8e-\	-tet	8g/	-tet	16ee-/L	16gg\L	16ee-\L	16gg\L
.	.	.	16g/JJ	.	16ee-\JJ	.	.	.	.	.	.	.	.	.	16g/JJ	16ee-\JJ	16g/JJ	16ee-\JJ
=37	=37	=37	=37	=37	=37	=37	=37	=37	=37	=37	=37	=37	=37	=37	=37	=37	=37	=37
*tremolo	*	*	*	*	*	*	*	*	*	*	*	*	*	*	*	*	*	*
8BB-/L	.	.	8b-\L	.	8ff\L	.	4BB-/	e-	4B-\	e-	4d\	e-	4f/	e-	8b-/L	8ff\L	8dd\L	8ff\L
8BB-/	.	.	16.dd\L	.	16.ff\L	.	.	.	.	.	.	.	.	.	16.b-/L	16.ff\L	16.dd\L	16.ff\L
.	.	.	32dd\JJk	.	32ff\JJk	.	.	.	.	.	.	.	.	.	32b-/JJk	32ff\JJk	32dd\JJk	32ff\JJk
!	!	!	!	!	!	!	!	!	!	!	!	!	!	!	!LO:TX:t=P:problem=mixed beam	!	!	!
8BB-/	.	.	8.dd\L	.	8.ff\L	.	8BB-/	-as	8B-\	-as	8d\	-as	8f/	-as	8.b-/L	8.ff\L	8.dd\L	8.ff\L
8BB-/J	.	.	.	.	.	.	8BB-/	in	8B-\	in	8d\	in	8f/	in	.	.	.	.
.	.	.	16ff\Jk	.	16aa-\Jk	.	.	.	.	.	.	.	.	.	16ff\Jk	16aa-\Jk	16ff\Jk	16aa-\Jk
*Xtremolo	*	*	*	*	*	*	*	*	*	*	*	*	*	*	*	*	*	*
!	!	!	!	!	!LO:LB:g=original	!	!	!	!LO:LB:g=original	!	!	!	!	!	!LO:LB:g=original	!	!	!
4E-\	.	.	16ee-\LL	.	16gg|\LL	.	8E-\	lu-	8B-\	lu-	8e-\	lu-	8g\	lu-	16ee-\LL	16gg\LL	16ee-\LL	16gg\LL
.	.	.	16gg\	.	16bb-|\	.	.	.	.	.	.	.	.	.	16gg\	16bb-\	16gg\	16bb-\
.	.	.	16gg\	.	16bb-|\	.	8E-\	-cem	8e-\	-cem	8g\	-cem	8b-\	-cem	16gg\	16bb-\	16gg\	16bb-\
.	.	.	16gg\JJ	.	16bb-|\JJ	.	.	.	.	.	.	.	.	.	16gg\JJ	16bb-\JJ	16gg\JJ	16bb-\JJ
!	!	!	!LO:TX:t=P:problem=mixed beam	!	!	!	!	!	!	!	!	!	!	!	!	!	!LO:TX:t=P:problem=mixed beam	!
8BB-\L	.	.	16ff\LL	.	(16aa-\LL	.	8BB-/L	ſan-	4B-\	ſan-	8f\L	ſanc-	8a-\L	ſanc-	16ff\LL	16aa-\LL	16ff\LL	16aa-\LL
.	.	.	16dd\	.	16ff\)	.	.	.	.	.	.	.	.	.	16b-\	16ff\	16dd\	16ff\
8E-\J	.	.	16ee-\	.	(16gg\	.	8E-/J	.	.	.	8e-\J	.	8g\J	.	16ee-\	16gg\	16ee-\	16gg\
.	.	.	16a-/JJ	.	16ee-\JJ)	.	.	.	.	.	.	.	.	.	16g\JJ	16ee-\JJ	16g/JJ	16ee-\JJ
!	!	!	!LO:LB:g=original	!	!	!	!	!	!	!	!	!	!	!	!	!	!LO:LB:g=original	!
=38	=38	=38	=38	=38	=38	=38	=38	=38	=38	=38	=38	=38	=38	=38	=38	=38	=38	=38
!LO:TX:t=P:problem=mixed beam	!	!	!	!	!	!	!	!	!	!	!	!	!	!	!	!	!	!
8B-\L	.	.	8b-\L	.	8ff\L	.	4BB-/	-cta(m)	4B-\	-ctam	4d\	-tam	4f/	-tam	8b-/L	8ff\L	8dd\L	8ff\L
8BB-/	.	.	16.dd\L	.	16.ff\L	.	.	.	.	.	.	.	.	.	16.b-/L	16.ff\L	16.dd\L	16.ff\L
.	.	.	32dd\JJk	.	32ff\JJk	.	.	.	.	.	.	.	.	.	32b-/JJk	32ff\JJk	32dd\JJk	32ff\JJk
8BB-/	.	.	4dd\	.	4ff\	.	4BB-/	in	4B-\	in	4d\	in	4f/	i	4b-/	4ff\	4dd\	4ff\
8BB-/J	.	.	.	.	.	.	.	.	.	.	.	.	.	.	.	.	.	.
!	!	!	!	!	!	!	!	!	!	!	!	!	!LO:LB:g=original	!	!	!	!	!
4BB-/	.	.	8dd\L	.	8ff\L	.	4BB-/	lu-	4B-\	lu-	4d\	lu-	4f/	lu-	8b-/L	8ff\L	8dd\L	8ff\L
.	.	.	16ff\L	.	16aa-\L	.	.	.	.	.	.	.	.	.	16ff/L	16aa-\L	16ff\L	16aa-\L
.	.	.	16dd\JJ	.	16ff\JJ	.	.	.	.	.	.	.	.	.	16b-/JJ	16ff\JJ	16dd\JJ	16ff\JJ
4E-\	.	.	8ee-\L	.	8gg\L	.	4E-\	-cem	4B-\	-cem	4e-\	-cem	4g/	-cem	8ee-\L	8gg\L	8ee-\L	8gg\L
.	.	.	16gg\L	.	16bb-\L	.	.	.	.	.	.	.	.	.	16gg\L	16bb-\L	16gg\L	16bb-\L
.	.	.	16ee-\JJ	.	16gg\JJ	.	.	.	.	.	.	.	.	.	16ee-\JJ	16gg\JJ	16ee-\JJ	16gg\JJ
=39	=39	=39	=39	=39	=39	=39	=39	=39	=39	=39	=39	=39	=39	=39	=39	=39	=39	=39
4BB-/	.	.	8dd\L	.	8ff\L	.	4BB-/	ſan-	4B-\	ſan-	4d\	ſanc-	4f/	ſanc-	8b-/L	8ff\L	8dd\L	8ff\L
.	.	.	(24ff\L	.	(24aa-\L	.	.	.	.	.	.	.	.	.	(24ff/L	(24aa-\L	(24ff\L	(24aa-\L
.	.	.	24ee-\	.	24gg\	.	.	.	.	.	.	.	.	.	24ee-/	24gg\	24ee-\	24gg\
.	.	.	24dd\JJ)	.	24ff\JJ)	.	.	.	.	.	.	.	.	.	24b-/JJ)	24ff\JJ)	24dd\JJ)	24ff\JJ)
4E-\	.	.	8ee-\L	.	8gg\L	.	4E-\	-cta(m)	4B-\	-ctam	4e-\	-tam	4g/	-tam	8ee-\L	8gg\L	8ee-\L	8gg\L
.	.	.	(24gg\L	.	(24bb-\L	.	.	.	.	.	.	.	.	.	(24gg\L	(24bb-\L	(24gg\L	24bb-\L
.	.	.	24ff\	.	24aa-\	.	.	.	.	.	.	.	.	.	24ff\	24aa-\	24ff\	24aa-\
.	.	.	24ee-\JJ)	.	24gg\JJ)	.	.	.	.	.	.	.	.	.	24ee-\JJ)	24gg\JJ)	24ee-\JJ)	24gg\JJ
!	!	!	!	!	!	!	!	!	!	!	!	!	!LO:TX:t=P:problem=caudy całej grupy po prawej	!	!	!	!	!
4A-\	6 5	.	8aa-\L	.	8ccc\L	.	4A-\	.	4r	.	8a-\L	ſan-	8cc\L	ſan-	8aa-\L	8ccc\L	8aa-\L	8ccc\L
.	.	.	(24aa-\L	.	(24ccc\L	.	.	.	.	.	24a-\L	.	24cc\L	.	(24aa-\L	(24ccc\L	(24aa-\L	24ccc\L
.	.	.	24gg\	.	24bb-\	.	.	.	.	.	24g\	.	24b-\	.	24gg\	24bb-\	24gg\	24bb-\
.	.	.	24ff\JJ)	.	24aa-\JJ)	.	.	.	.	.	24f\JJ	.	24a-\JJ	.	24ff\JJ)	24aa-\JJ)	24ff\JJ)	24aa-\JJ
!LO:TX:t=P:problem=mixed beam	!	!	!	!	!	!	!LO:TX:t=P:problem=mixed beam	!	!	!	!	!	!	!	!	!	!	!
8B-\L	4	.	8ee-\L	.	8gg\L	.	8B-\L	San-	4B-\	ſan-	8e-\L	.	8g/L	.	8ee-\L	8gg\L	8ee-\L	8gg\L
8BB-/J	3	.	8dd\J	.	8ff\J	.	8BB-/J	.	.	.	8d\J	.	8f/J	.	8b-\J	8ff\J	8a-\J	8ff\J
!	!	!	!	!	!	!	!	!	!	!	!	!	!	!	!	!	!	!LO:LB:g=original
=40	=40	=40	=40	=40	=40	=40	=40	=40	=40	=40	=40	=40	=40	=40	=40	=40	=40	=40
!	!	!	!LO:TX:t=P:problem=mixed beam	!	!	!	!	!	!	!	!	!	!	!	!	!	!	!
8E-\L	.	.	8ee-\L	.	8ee-\L	.	4E-\	-ctam	4B-\	-ctam.	4e-\	-ctam.	4e-/	-ctam.	8g/L	8ee-\L	8g/L	8ee-\L
8E-\J	.	.	16.g/L	.	16.ee-\L	.	.	.	.	.	.	.	.	.	16.g/L	16.ee-\L	16.g/L	16.ee-\L
.	.	.	32g/JJk	.	32ee-\JJk	.	.	.	.	.	.	.	.	.	32g/JJk	32ee-\JJk	32g/JJk	32ee-\JJk
4E-\	.	.	4g/	.	4ee-\	.	4r	.	4r	.	4r	.	4r	.	4g/	4ee-\	4g/	4ee-\
4r	.	.	2r	.	4r	.	2r	.	2r	.	2r	.	2r	.	2r	2r	2r	2r
4r	.	.	.	.	4r	.	.	.	.	.	.	.	.	.	.	.	.	.
==	==	==	==	==	==	==	==	==	==	==	==	==	==	==	==	==	==	==
*-	*-	*-	*-	*-	*-	*-	*-	*-	*-	*-	*-	*-	*-	*-	*-	*-	*-	*-
!!!RDF**kern: | = vertical stroke
!!!RDF**kern: < = below
!!!RDF**kern: > = above
!!!system-decoration: [(s1,s2,s3,s4,s5,s6,s7,s8,s9,s10,s11)]
!!!ENC: Mateusz Solarz
!!!END: 2020. 09. 04.
!!!ENC: Urszula Świątek
!!!END: 2022-01-26
